;FLAVOR:Marlin
;TIME:375
;Filament used: 0.326453m
;Layer height: 0.2
;MINX:92.349
;MINY:92.043
;MINZ:0.24
;MAXX:127.954
;MAXY:127.958
;MAXZ:7.09
;Generated with Cura_SteamEngine 4.4.1
M140 S60
M105
M190 S60
M104 S200
M105
M109 S200
M82 ;absolute extrusion mode
M201 X500.00 Y500.00 Z100.00 E5000.00 ;Setup machine max acceleration
M203 X500.00 Y500.00 Z10.00 E50.00 ;Setup machine max feedrate
M204 P500.00 R1000.00 T500.00 ;Setup Print/Retract/Travel acceleration
M205 X8.00 Y8.00 Z0.40 E5.00 ;Setup Jerk
M220 S100 ;Reset Feedrate
M221 S100 ;Reset Flowrate

G28 ;Home

G92 E0 ;Reset Extruder
G1 Z2.0 F3000 ;Move Z Axis up
G1 X10.1 Y20 Z0.28 F5000.0 ;Move to start position
G1 X10.1 Y200.0 Z0.28 F1500.0 E15 ;Draw the first line
G1 X10.4 Y200.0 Z0.28 F5000.0 ;Move to side a little
G1 X10.4 Y20 Z0.28 F1500.0 E30 ;Draw the second line
G92 E0 ;Reset Extruder
G1 Z2.0 F3000 ;Move Z Axis up

G92 E0
G92 E0
G1 F1500 E-6.5
;LAYER_COUNT:30
;LAYER:-6
M107
G0 F9000 X98.247 Y97.861 Z0.24
;TYPE:SUPPORT-INTERFACE
G1 F1500 E0
G1 F1125 X98.391 Y97.724 E0.01587
G1 X99.526 Y96.74 E0.13577
G1 X99.629 Y96.662 E0.14609
G1 X100.915 Y95.753 E0.2718
G1 X101.017 Y95.691 E0.28133
G1 X102.153 Y95.037 E0.38596
G1 X102.338 Y94.944 E0.40249
G1 X103.601 Y94.362 E0.5135
G1 X103.753 Y94.304 E0.52648
G1 X105.205 Y93.798 E0.64922
G1 X105.402 Y93.743 E0.66555
G1 X106.674 Y93.433 E0.77006
G1 X106.8 Y93.411 E0.78027
G1 X108.315 Y93.188 E0.90251
G1 X108.477 Y93.176 E0.91547
G1 X110.046 Y93.103 E1.04085
G1 X110.145 Y93.105 E1.04876
G1 X111.698 Y93.189 E1.1729
G1 X112.808 Y93.338 E1.2623
G1 X113.586 Y93.491 E1.3256
G1 X114.69 Y93.766 E1.41642
G1 X114.809 Y93.803 E1.42636
G1 X116.227 Y94.291 E1.54607
G1 X116.443 Y94.382 E1.56478
G1 X117.723 Y94.972 E1.67729
G1 X119.005 Y95.705 E1.79517
G1 X119.245 Y95.861 E1.81802
G1 X120.378 Y96.666 E1.92896
G1 X120.452 Y96.726 E1.93657
G1 X121.648 Y97.759 E2.06272
G1 X121.73 Y97.84 E2.07192
G1 X122.731 Y98.887 E2.18755
G1 X122.823 Y98.999 E2.19911
G1 X123.707 Y100.121 E2.31314
G1 X123.832 Y100.297 E2.33037
G1 X124.656 Y101.589 E2.45269
G1 X124.702 Y101.672 E2.46027
G1 X125.252 Y102.731 E2.55552
G1 X125.363 Y102.974 E2.57685
G1 X125.95 Y104.421 E2.70149
G1 X125.979 Y104.51 E2.70897
G1 X126.397 Y105.923 E2.82659
G1 X126.447 Y106.138 E2.84421
G1 X126.713 Y107.52 E2.95655
G1 X126.737 Y107.708 E2.97168
G1 X126.869 Y109.037 E3.07829
G1 X126.874 Y109.178 E3.08955
G1 X126.885 Y110.683 E3.20969
G1 X126.877 Y110.815 E3.22025
G1 X126.723 Y112.415 E3.34856
G1 X126.698 Y112.565 E3.36069
G1 X126.482 Y113.713 E3.45394
G1 X126.425 Y113.955 E3.47379
G1 X126.017 Y115.382 E3.59226
G1 X125.949 Y115.576 E3.60867
G1 X125.395 Y116.965 E3.72804
G1 X125.342 Y117.076 E3.73786
G1 X124.606 Y118.494 E3.86539
G1 X124.545 Y118.595 E3.87481
G1 X123.807 Y119.737 E3.98334
G1 X123.73 Y119.842 E3.99374
G1 X122.877 Y120.942 E4.10485
G1 X122.811 Y121.016 E4.11277
G1 X121.771 Y122.124 E4.23407
G1 X121.632 Y122.256 E4.24937
G1 X120.47 Y123.264 E4.37216
G1 X120.407 Y123.312 E4.37849
G1 X119.327 Y124.089 E4.48469
G1 X119.127 Y124.218 E4.50369
G1 X117.751 Y125.014 E4.63058
G1 X117.63 Y125.073 E4.64133
G1 X116.475 Y125.606 E4.74287
G1 X116.287 Y125.683 E4.75908
G1 X115.255 Y126.061 E4.84681
G1 X114.572 Y126.266 E4.90374
G1 X113.387 Y126.554 E5.00108
G1 X113.267 Y126.576 E5.01082
G1 X111.652 Y126.817 E5.14117
G1 X111.519 Y126.826 E5.15181
G1 X109.964 Y126.897 E5.27606
G1 X109.838 Y126.894 E5.28612
G1 X108.356 Y126.817 E5.40458
G1 X106.853 Y126.602 E5.52578
G1 X106.657 Y126.563 E5.54173
G1 X105.266 Y126.222 E5.65606
G1 X105.152 Y126.185 E5.66562
G1 X103.633 Y125.653 E5.7941
G1 X103.525 Y125.606 E5.8035
G1 X102.337 Y125.06 E5.90787
G1 X102.162 Y124.968 E5.92365
G1 X100.966 Y124.278 E6.03387
G1 X100.818 Y124.181 E6.04799
G1 X99.605 Y123.319 E6.16678
G1 X99.496 Y123.23 E6.17801
G1 X98.32 Y122.211 E6.30222
G1 X98.249 Y122.14 E6.31024
G1 X97.332 Y121.182 E6.4161
G1 X97.239 Y121.074 E6.42747
G1 X96.564 Y120.251 E6.51244
G1 X96.113 Y119.622 E6.57422
G1 X95.296 Y118.324 E6.69665
G1 X95.255 Y118.247 E6.70361
G1 X94.639 Y117.038 E6.81192
G1 X94.61 Y116.97 E6.81783
G1 X94.136 Y115.817 E6.91734
G1 X94.058 Y115.592 E6.93635
G1 X93.575 Y113.966 E7.07175
G1 X93.553 Y113.865 E7.08
G1 X93.269 Y112.367 E7.2017
G1 X93.245 Y112.187 E7.2162
G1 X93.124 Y110.852 E7.3232
G1 X93.121 Y110.726 E7.33326
G1 X93.118 Y109.285 E7.44829
G1 X93.131 Y109.06 E7.46628
G1 X93.295 Y107.459 E7.59475
G1 X93.316 Y107.333 E7.60494
G1 X93.569 Y106.063 E7.70831
G1 X93.608 Y105.919 E7.72022
G1 X94.04 Y104.45 E7.84245
G1 X94.078 Y104.347 E7.85121
G1 X94.674 Y102.886 E7.97717
G1 X94.719 Y102.795 E7.98527
G1 X95.398 Y101.498 E8.10213
G1 X96.118 Y100.37 E8.20895
G1 X96.213 Y100.24 E8.22181
G1 X97.199 Y98.97 E8.35015
G1 X97.254 Y98.91 E8.35665
G1 X98.247 Y97.861 E8.47195
G0 F9000 X97.6 Y98.544
G1 F1125 X97.6 Y121.461 E10.30128
G0 F9000 X99.2 Y122.973
G1 F1125 X99.2 Y97.022 E12.3728
G0 F9000 X100.8 Y95.834
G1 F1125 X100.8 Y124.168 E14.63455
G0 F9000 X102.4 Y125.088
G1 F1125 X102.4 Y94.915 E17.04309
G0 F9000 X104 Y94.217
G1 F1125 X104 Y125.781 E19.56266
G0 F9000 X105.6 Y126.303
G1 F1125 X105.6 Y93.694 E22.16565
G0 F9000 X107.2 Y93.352
G1 F1125 X107.2 Y126.651 E24.82372
G0 F9000 X108.8 Y126.84
G1 F1125 X108.8 Y93.16 E27.51221
G0 F9000 X110.4 Y93.119
G1 F1125 X110.4 Y126.878 E30.20699
G0 F9000 X112 Y126.766
G1 F1125 X112 Y93.23 E32.88398
G0 F9000 X113.6 Y93.495
G1 F1125 X113.6 Y126.503 E35.51882
G0 F9000 X115.2 Y126.078
G1 F1125 X115.2 Y93.938 E38.08438
G0 F9000 X116.8 Y94.547
G1 F1125 X116.8 Y125.457 E40.55175
G0 F9000 X118.4 Y124.639
G1 F1125 X118.4 Y95.36 E42.88892
G0 F9000 X120 Y96.398
G1 F1125 X120 Y123.605 E45.06071
G0 F9000 X121.6 Y122.284
G1 F1125 X121.6 Y97.718 E47.02167
G0 F9000 X123.2 Y99.478
G1 F1125 X123.2 Y120.526 E48.70181
G0 F9000 X124.8 Y118.121
G1 F1125 X124.8 Y101.861 E49.99976
G0 F9000 X126.4 Y105.936
G1 F1125 X126.4 Y114.043 E50.64689
G1 F1500 E44.14689
G0 F9000 X127.424 Y114.333
G0 X126.941 Y115.961
G0 X126.293 Y117.554
G0 X125.446 Y119.161
G0 X124.585 Y120.477
G0 X123.6 Y121.731
G0 X122.338 Y123.052
G0 X121.035 Y124.171
G0 X119.672 Y125.132
G0 X118.09 Y126.033
G0 X116.665 Y126.678
G0 X114.839 Y127.297
G0 X113.438 Y127.626
G0 X111.586 Y127.888
G0 X109.798 Y127.958
G0 X108.214 Y127.872
G0 X106.417 Y127.601
G0 X104.819 Y127.196
G0 X103.096 Y126.58
G0 X101.639 Y125.895
G0 X100.221 Y125.063
G0 X98.815 Y124.047
G0 X97.492 Y122.889
G0 X96.535 Y121.876
G0 X95.219 Y120.2
G0 X96 Y119.442
G1 F1500 E50.64689
G1 F1125 X96 Y100.554 E52.15461
G0 F9000 X94.4 Y103.557
G1 F1125 X94.4 Y116.459 E53.18451
G0 F300 X94.4 Y116.459 Z0.54
G0 F9000 X95.255 Y118.245
;TIME_ELAPSED:44.050207
;LAYER:-5
M140 S60
;TYPE:SUPPORT
G1 F1125 X95.296 Y118.323 E53.1933
G1 X96.112 Y119.621 E53.34628
G1 X96.563 Y120.25 E53.42351
G1 X97.239 Y121.072 E53.5297
G1 X97.331 Y121.181 E53.54393
G1 X98.248 Y122.139 E53.67626
G1 X98.319 Y122.209 E53.68621
G1 X99.496 Y123.229 E53.84161
G1 X99.605 Y123.318 E53.85565
G1 X100.817 Y124.18 E54.00405
G1 X100.965 Y124.277 E54.02171
G1 X102.162 Y124.967 E54.15957
G1 X102.336 Y125.058 E54.17916
G1 X102.512 Y125.139 E54.19849
G1 X94.876 Y117.504 E55.27595
G1 X94.639 Y117.037 E55.3282
G1 X94.61 Y116.968 E55.33567
G1 X94.136 Y115.816 E55.45997
G1 X94.057 Y115.59 E55.48385
G1 X93.922 Y115.135 E55.53121
G1 X104.873 Y126.086 E57.07651
G1 X105.151 Y126.183 E57.10589
G1 X105.265 Y126.221 E57.11788
G1 X106.657 Y126.562 E57.26089
G1 X106.789 Y126.588 E57.27431
G1 X93.432 Y113.231 E59.15913
G1 X93.268 Y112.366 E59.24697
G1 X93.244 Y112.186 E59.26509
G1 X93.188 Y111.573 E59.32651
G1 X108.434 Y126.819 E61.47789
G1 X109.837 Y126.893 E61.61808
G1 X109.924 Y126.895 E61.62676
G1 X93.119 Y110.09 E63.99813
G1 X93.118 Y109.284 E64.07855
G1 X93.13 Y109.059 E64.10103
G1 X93.164 Y108.721 E64.13493
G1 X111.279 Y126.835 E66.69108
G1 X111.519 Y126.825 E66.71505
G1 X111.652 Y126.816 E66.72835
G1 X112.54 Y126.683 E66.81794
G1 X93.297 Y107.439 E69.53341
G1 X93.316 Y107.332 E69.54425
G1 X93.529 Y106.257 E69.6536
G1 X113.738 Y126.466 E72.50531
G1 X114.572 Y126.265 E72.59091
G1 X114.863 Y126.177 E72.62124
G1 X93.833 Y105.147 E75.5888
G1 X94.04 Y104.448 E75.66154
G1 X94.077 Y104.346 E75.67237
G1 X94.184 Y104.083 E75.7007
G1 X115.917 Y125.816 E78.76746
G1 X116.287 Y125.681 E78.80676
G1 X116.475 Y125.605 E78.82699
G1 X116.915 Y125.401 E78.87539
G1 X94.594 Y103.079 E82.02519
G1 X94.674 Y102.885 E82.04613
G1 X94.719 Y102.794 E82.05626
G1 X95.063 Y102.134 E82.13052
G1 X117.871 Y124.942 E85.34898
G1 X118.767 Y124.423 E85.4523
G1 X95.569 Y101.226 E88.72571
G1 X96.117 Y100.368 E88.8273
G1 X96.121 Y100.363 E88.82794
G1 X119.628 Y123.87 E92.14503
G1 X120.406 Y123.311 E92.24062
G1 X120.449 Y123.277 E92.24609
G1 X96.736 Y99.564 E95.59225
G1 X97.198 Y98.969 E95.66741
G1 X97.254 Y98.908 E95.67568
G1 X97.37 Y98.784 E95.69262
G1 X121.208 Y122.622 E99.05642
G1 X121.631 Y122.255 E99.1123
G1 X121.77 Y122.122 E99.13149
G1 X121.941 Y121.941 E99.15634
G1 X98.058 Y98.058 E102.52649
G1 X98.246 Y97.861 E102.55366
G1 X98.39 Y97.724 E102.57349
G1 X98.791 Y97.377 E102.6264
G1 X122.626 Y121.212 E105.98978
G1 X122.81 Y121.015 E106.01668
G1 X122.876 Y120.942 E106.0265
G1 X123.267 Y120.438 E106.09014
G1 X99.55 Y96.722 E109.4368
G1 X99.627 Y96.662 E109.44654
G1 X100.376 Y96.133 E109.53804
G1 X123.874 Y119.631 E112.85386
G1 X124.429 Y118.772 E112.9559
G1 X101.227 Y95.57 E116.22996
G1 X102.124 Y95.053 E116.33326
G1 X124.933 Y117.862 E119.55186
G1 X125.341 Y117.076 E119.64022
G1 X125.394 Y116.965 E119.65249
G1 X125.41 Y116.925 E119.65679
G1 X103.084 Y94.599 E122.80723
G1 X103.599 Y94.361 E122.86384
G1 X103.752 Y94.304 E122.88013
G1 X104.087 Y94.188 E122.91551
G1 X125.813 Y115.913 E125.98121
G1 X125.947 Y115.575 E126.01749
G1 X126.016 Y115.381 E126.03803
G1 X126.167 Y114.853 E126.09283
G1 X105.136 Y93.822 E129.06053
G1 X105.204 Y93.798 E129.06773
G1 X105.401 Y93.742 E129.08816
G1 X106.261 Y93.533 E129.17647
G1 X126.473 Y113.745 E132.0286
G1 X126.481 Y113.712 E132.03199
G1 X126.697 Y112.565 E132.14845
G1 X126.699 Y112.557 E132.14927
G1 X107.456 Y93.314 E134.86467
G1 X108.314 Y93.188 E134.9512
G1 X108.476 Y93.176 E134.96741
G1 X108.721 Y93.164 E134.99188
G1 X126.832 Y111.275 E137.54754
G1 X126.876 Y110.814 E137.59375
G1 X126.883 Y110.682 E137.60694
G1 X126.878 Y109.907 E137.68427
G1 X110.074 Y93.104 E140.05542
G1 X110.144 Y93.104 E140.06241
G1 X111.567 Y93.182 E140.20461
G1 X126.807 Y108.422 E142.35514
G1 X126.736 Y107.707 E142.42683
G1 X126.712 Y107.519 E142.44574
G1 X126.567 Y106.768 E142.52206
G1 X113.217 Y93.418 E144.40589
G1 X113.585 Y93.49 E144.44331
G1 X114.689 Y93.765 E144.55683
G1 X114.807 Y93.802 E144.56917
G1 X115.125 Y93.912 E144.60274
G1 X126.085 Y104.872 E146.14932
G1 X125.978 Y104.51 E146.18698
G1 X125.949 Y104.42 E146.19642
G1 X125.362 Y102.973 E146.35223
G1 X125.251 Y102.731 E146.3788
G1 X125.135 Y102.507 E146.40397
G1 X117.494 Y94.867 E147.48212
G1 X117.722 Y94.972 E147.50717
G1 X119.003 Y95.704 E147.65438
G1 X119.243 Y95.861 E147.683
G1 X120.377 Y96.666 E147.82176
G1 X120.451 Y96.726 E147.83127
G1 X121.647 Y97.758 E147.98889
G1 X121.729 Y97.84 E148.00046
G1 X122.73 Y98.886 E148.14492
G1 X122.822 Y98.998 E148.15939
G1 X123.706 Y100.121 E148.30199
G1 X123.831 Y100.297 E148.32353
G1 X124.655 Y101.589 E148.47643
G1 X124.701 Y101.672 E148.4859
G1 F1500 E141.9859
G0 F300 X124.701 Y101.672 Z0.74
G0 F9000 X125.492 Y100.913
G0 X124.485 Y99.383
G0 X123.408 Y98.049
G0 X122.2 Y96.821
G0 X120.855 Y95.693
G0 X119.487 Y94.753
G0 X117.936 Y93.889
G0 X116.5 Y93.258
G0 X115.14 Y92.805
G0 X113.686 Y92.423
G0 X113.144 Y93.2
;TIME_ELAPSED:96.583193
;LAYER:-4
;TYPE:SUPPORT-INTERFACE
G1 F1500 E148.4859
G1 X106.864 Y93.2 E148.69478
G1 X108.305 Y92.988 E148.74322
G1 X108.457 Y92.976 E148.74829
G1 X110.049 Y92.903 E148.8013
G1 X110.155 Y92.905 E148.80482
G1 X111.729 Y92.991 E148.85725
G1 X112.835 Y93.139 E148.89437
G1 F1500 E142.39437
G0 F9000 X112.812 Y92.26
G0 X111.474 Y92.102
G0 X109.787 Y92.043
G0 X108.305 Y92.136
G0 X106.734 Y92.345
G0 X106.864 Y93.2
G1 F1500 E148.89437
G1 X106.761 Y93.215 E148.89783
G1 X106.646 Y93.235 E148.90171
G1 X105.348 Y93.55 E148.94614
G1 X105.171 Y93.6 E148.95225
G1 X114.831 Y93.6 E149.27355
G1 X114.863 Y93.61 E149.27466
G1 X115.994 Y94 E149.31445
G1 X104.018 Y94 E149.71278
G1 X103.676 Y94.119 E149.72482
G1 X103.529 Y94.175 E149.73005
G1 X103.041 Y94.4 E149.74792
G1 X116.963 Y94.4 E150.21097
G1 X117.771 Y94.771 E150.24054
G1 X117.822 Y94.8 E150.2425
G1 X102.18 Y94.8 E150.76275
G1 X102.061 Y94.86 E150.76718
G1 X101.471 Y95.2 E150.78983
G1 X118.525 Y95.2 E151.35705
G1 X119.113 Y95.535 E151.37956
G1 X119.213 Y95.6 E151.38352
G1 X100.786 Y95.6 E151.99641
G1 X100.22 Y96 E152.01946
G1 X119.787 Y96 E152.67026
G1 X120.35 Y96.4 E152.69323
G1 X99.654 Y96.4 E153.38158
G1 X99.513 Y96.499 E153.38731
G1 X99.407 Y96.58 E153.39175
G1 X99.154 Y96.8 E153.4029
G1 X120.847 Y96.8 E154.12442
G1 X121.313 Y97.2 E154.14484
G1 X98.692 Y97.2 E154.89722
G1 X98.237 Y97.594 E154.91724
G1 X98.231 Y97.6 E154.91752
G1 X121.77 Y97.6 E155.70043
G1 X121.874 Y97.701 E155.70525
G1 X122.16 Y98 E155.71901
G1 X97.841 Y98 E156.52787
G1 X97.461 Y98.4 E156.54622
G1 X122.542 Y98.4 E157.38041
G1 X122.884 Y98.758 E157.39688
G1 X122.919 Y98.8 E157.3987
G1 X97.083 Y98.8 E158.25801
G1 X97.042 Y98.845 E158.26003
G1 X96.767 Y99.2 E158.27497
G1 X123.238 Y99.2 E159.1554
G1 X123.553 Y99.6 E159.17233
G1 X96.457 Y99.6 E160.07355
G1 X96.146 Y100 E160.0904
G1 X123.869 Y100 E161.01247
G1 X124 Y100.188 E161.02009
G1 X124.136 Y100.4 E161.02847
G1 X95.863 Y100.4 E161.96883
G1 X95.607 Y100.8 E161.98463
G1 X124.39 Y100.8 E162.94196
G1 X124.645 Y101.2 E162.95773
G1 X95.352 Y101.2 E163.93202
G1 X95.229 Y101.391 E163.93958
G1 X95.12 Y101.6 E163.94742
G1 X124.891 Y101.6 E164.93761
G1 X125.097 Y102 E164.95257
G1 X94.91 Y102 E165.95659
G1 X94.701 Y102.4 E165.97161
G1 X125.304 Y102.4 E166.98947
G1 X125.485 Y102.752 E167.00263
G1 X125.506 Y102.8 E167.00437
G1 X94.494 Y102.8 E168.03584
G1 X94.33 Y103.2 E168.05021
G1 X125.671 Y103.2 E169.09262
G1 X125.834 Y103.6 E169.10699
G1 X94.167 Y103.6 E170.16024
G1 X94.004 Y104 E170.1746
G1 X125.996 Y104 E171.23866
G1 X126.136 Y104.346 E171.25107
G1 X126.154 Y104.4 E171.25297
G1 X93.847 Y104.4 E172.3275
G1 X93.729 Y104.8 E172.34137
G1 X126.274 Y104.8 E173.42382
G1 X126.392 Y105.2 E173.4377
G1 X93.612 Y105.2 E174.52796
G1 X93.494 Y105.6 E174.54183
G1 X126.51 Y105.6 E175.63995
G1 X126.591 Y105.874 E175.64945
G1 X126.621 Y106 E175.65376
G1 X93.38 Y106 E176.75936
G1 X93.378 Y106.007 E176.7596
G1 X93.3 Y106.4 E176.77293
G1 X126.702 Y106.4 E177.88388
G1 X126.779 Y106.8 E177.89743
G1 X93.22 Y106.8 E179.01361
G1 X93.14 Y107.2 E179.02718
G1 X126.855 Y107.2 E180.14854
G1 X126.912 Y107.499 E180.15867
G1 X126.925 Y107.6 E180.16205
G1 X93.081 Y107.6 E181.28771
G1 X93.04 Y108 E181.30108
G1 X126.967 Y108 E182.4295
G1 X127.007 Y108.4 E182.44287
G1 X92.999 Y108.4 E183.57398
G1 X92.957 Y108.8 E183.58736
G1 X127.046 Y108.8 E184.72116
G1 X127.068 Y109.028 E184.72878
G1 X127.074 Y109.175 E184.73368
G1 X127.075 Y109.2 E184.73451
G1 X92.923 Y109.2 E185.87041
G1 X92.918 Y109.276 E185.87294
G1 X92.918 Y109.6 E185.88372
G1 X127.078 Y109.6 E187.01988
G1 X127.081 Y110 E187.03319
G1 X92.919 Y110 E188.16942
G1 X92.92 Y110.4 E188.18272
G1 X127.083 Y110.4 E189.31899
G1 X127.085 Y110.681 E189.32834
G1 X127.077 Y110.8 E189.3323
G1 X92.923 Y110.8 E190.46827
G1 X92.929 Y110.962 E190.47366
G1 X92.951 Y111.2 E190.48161
G1 X127.04 Y111.2 E191.61542
G1 X127.002 Y111.6 E191.62878
G1 X92.989 Y111.6 E192.76006
G1 X93.027 Y112 E192.77342
G1 X126.963 Y112 E193.90214
