;FLAVOR:Marlin
;TIME:20007
;Filament used: 13.9105m
;Layer height: 0.2
;MINX:46.581
;MINY:59.081
;MINZ:0.2
;MAXX:173.418
;MAXY:160.919
;MAXZ:26
;Generated with Cura_SteamEngine 4.4.1
M140 S60
M105
M190 S60
M104 S200
M105
M109 S200
M82 ;absolute extrusion mode
M201 X500.00 Y500.00 Z100.00 E5000.00 ;Setup machine max acceleration
M203 X500.00 Y500.00 Z10.00 E50.00 ;Setup machine max feedrate
M204 P500.00 R1000.00 T500.00 ;Setup Print/Retract/Travel acceleration
M205 X8.00 Y8.00 Z0.40 E5.00 ;Setup Jerk
M220 S100 ;Reset Feedrate
M221 S100 ;Reset Flowrate

G28 ;Home

G92 E0 ;Reset Extruder
G1 Z2.0 F3000 ;Move Z Axis up
G1 X10.1 Y20 Z0.28 F5000.0 ;Move to start position
G1 X10.1 Y200.0 Z0.28 F1500.0 E15 ;Draw the first line
G1 X10.4 Y200.0 Z0.28 F5000.0 ;Move to side a little
G1 X10.4 Y20 Z0.28 F1500.0 E30 ;Draw the second line
G92 E0 ;Reset Extruder
G1 Z2.0 F3000 ;Move Z Axis up

G92 E0
G92 E0
G1 F1500 E-6.5
;LAYER_COUNT:130
;LAYER:0
M107
G0 F6000 X50.817 Y61.741 Z0.2
;TYPE:SKIRT
G1 F1500 E0
G1 F1200 X51.785 Y61.021 E0.04013
G1 X51.93 Y60.925 E0.04591
G1 X52.733 Y60.441 E0.07709
G1 X53.575 Y60.027 E0.1083
G1 X54.448 Y59.687 E0.13946
G1 X55.348 Y59.422 E0.17067
G1 X56.267 Y59.235 E0.20186
G1 X57.199 Y59.126 E0.23307
G1 X57.81 Y59.099 E0.25341
G1 X58.67 Y59.084 E0.28202
G1 X58.862 Y59.082 E0.2884
G1 X126.64 Y59.082 E2.54271
G1 X161.291 Y59.081 E3.69521
G1 X161.449 Y59.082 E3.70046
G1 X162.145 Y59.092 E3.72361
G1 X163.081 Y59.146 E3.7548
G1 X164.01 Y59.279 E3.78601
G1 X164.923 Y59.49 E3.81718
G1 X165.816 Y59.779 E3.84839
G1 X166.68 Y60.142 E3.87956
G1 X167.511 Y60.578 E3.91078
G1 X168.301 Y61.084 E3.94198
G1 X169.037 Y61.647 E3.9728
G1 X169.358 Y61.915 E3.98671
G1 X170.051 Y62.546 E4.01788
G1 X170.689 Y63.234 E4.04909
G1 X171.47 Y64.272 E4.09229
G1 X171.565 Y64.415 E4.098
G1 X172.051 Y65.218 E4.12922
G1 X172.466 Y66.059 E4.16042
G1 X172.808 Y66.932 E4.1916
G1 X173.074 Y67.831 E4.22278
G1 X173.263 Y68.75 E4.25399
G1 X173.372 Y69.681 E4.28516
G1 X173.401 Y70.305 E4.30594
G1 X173.416 Y71.143 E4.33382
G1 X173.418 Y71.34 E4.34037
G1 X173.418 Y148.765 E6.91554
G1 X173.417 Y148.917 E6.92059
G1 X173.407 Y149.639 E6.94461
G1 X173.354 Y150.576 E6.97582
G1 X173.221 Y151.504 E7.007
G1 X173.01 Y152.418 E7.0382
G1 X172.722 Y153.31 E7.06938
G1 X172.359 Y154.175 E7.10058
G1 X171.923 Y155.006 E7.13179
G1 X171.407 Y155.812 E7.16362
G1 X171.284 Y155.987 E7.17074
G1 X170.713 Y156.731 E7.20193
G1 X170.08 Y157.423 E7.23312
G1 X169.451 Y158.007 E7.26167
G1 X169.175 Y158.244 E7.27377
G1 X168.438 Y158.825 E7.30498
G1 X167.655 Y159.34 E7.33615
G1 X166.83 Y159.786 E7.36735
G1 X165.97 Y160.161 E7.39855
G1 X165.082 Y160.461 E7.42973
G1 X164.171 Y160.685 E7.46093
G1 X163.244 Y160.829 E7.49213
G1 X162.325 Y160.894 E7.52277
G1 X161.63 Y160.914 E7.5459
G1 X161.314 Y160.919 E7.55641
G1 X126.641 Y160.919 E8.70964
G1 X58.706 Y160.918 E10.96917
G1 X58.547 Y160.917 E10.97446
G1 X57.854 Y160.907 E10.99751
G1 X56.918 Y160.853 E11.02869
G1 X55.99 Y160.72 E11.05987
G1 X55.076 Y160.509 E11.09107
G1 X54.184 Y160.22 E11.12226
G1 X53.319 Y159.856 E11.15347
G1 X52.489 Y159.42 E11.18465
G1 X51.688 Y158.907 E11.21629
G1 X51.513 Y158.784 E11.2234
G1 X50.769 Y158.213 E11.2546
G1 X50.077 Y157.58 E11.28579
G1 X49.493 Y156.951 E11.31434
G1 X49.256 Y156.675 E11.32644
G1 X48.675 Y155.938 E11.35765
G1 X48.16 Y155.155 E11.38882
G1 X47.714 Y154.33 E11.42002
G1 X47.339 Y153.47 E11.45122
G1 X47.039 Y152.582 E11.48239
G1 X46.815 Y151.671 E11.5136
G1 X46.671 Y150.744 E11.5448
G1 X46.605 Y149.821 E11.57558
G1 X46.585 Y149.116 E11.59903
G1 X46.581 Y148.804 E11.60941
G1 X46.582 Y71.179 E14.19123
G1 X46.583 Y71.016 E14.19665
G1 X46.593 Y70.341 E14.21911
G1 X46.647 Y69.405 E14.25029
G1 X46.78 Y68.476 E14.2815
G1 X46.993 Y67.563 E14.31268
G1 X47.282 Y66.671 E14.34387
G1 X47.646 Y65.806 E14.37508
G1 X48.082 Y64.976 E14.40627
G1 X48.587 Y64.186 E14.43745
G1 X49.219 Y63.37 E14.47178
G1 X49.484 Y63.059 E14.48537
G1 X50.122 Y62.371 E14.51658
G1 X50.817 Y61.741 E14.54778
G0 F6000 X51.099 Y62.027
G1 F1200 X52.005 Y61.355 E14.5853
G1 X52.15 Y61.259 E14.59108
G1 X52.939 Y60.784 E14.62171
G1 X53.767 Y60.38 E14.65235
G1 X54.626 Y60.049 E14.68297
G1 X55.51 Y59.794 E14.71357
G1 X56.414 Y59.617 E14.74421
G1 X57.329 Y59.518 E14.77482
G1 X57.817 Y59.499 E14.79106
G1 X58.677 Y59.484 E14.81967
G1 X58.862 Y59.482 E14.82583
G1 X126.64 Y59.482 E17.08013
G1 X161.291 Y59.481 E18.23263
G1 X161.443 Y59.482 E18.23768
G1 X162.139 Y59.492 E18.26083
G1 X163.058 Y59.545 E18.29145
G1 X163.969 Y59.678 E18.32207
G1 X164.866 Y59.889 E18.35272
G1 X165.74 Y60.178 E18.38334
G1 X166.586 Y60.541 E18.41396
G1 X167.397 Y60.976 E18.44457
G1 X168.168 Y61.48 E18.4752
G1 X168.78 Y61.954 E18.50095
G1 X169.101 Y62.222 E18.51486
G1 X169.782 Y62.842 E18.54549
G1 X170.406 Y63.519 E18.57611
G1 X171.137 Y64.493 E18.61662
G1 X171.232 Y64.636 E18.62233
G1 X171.708 Y65.425 E18.65297
G1 X172.113 Y66.251 E18.68357
G1 X172.446 Y67.11 E18.71421
G1 X172.702 Y67.994 E18.74482
G1 X172.881 Y68.897 E18.77544
G1 X172.981 Y69.812 E18.80606
G1 X173.001 Y70.312 E18.8227
G1 X173.016 Y71.15 E18.85058
G1 X173.018 Y71.34 E18.8569
G1 X173.018 Y148.765 E21.43206
G1 X173.017 Y148.912 E21.43695
G1 X173.007 Y149.634 E21.46097
G1 X172.954 Y150.553 E21.49158
G1 X172.822 Y151.464 E21.5222
G1 X172.611 Y152.36 E21.55282
G1 X172.323 Y153.235 E21.58346
G1 X171.961 Y154.081 E21.61406
G1 X171.526 Y154.893 E21.6447
G1 X171.08 Y155.582 E21.672
G1 X170.957 Y155.757 E21.67911
G1 X170.396 Y156.487 E21.70973
G1 X169.773 Y157.165 E21.74036
G1 X169.191 Y157.704 E21.76674
G1 X168.915 Y157.941 E21.77884
G1 X168.191 Y158.51 E21.80947
G1 X167.42 Y159.014 E21.84011
G1 X166.609 Y159.449 E21.87072
G1 X165.763 Y159.812 E21.90133
G1 X164.889 Y160.1 E21.93194
G1 X163.993 Y160.312 E21.96257
G1 X163.081 Y160.445 E21.99322
G1 X162.314 Y160.495 E22.01878
G1 X161.619 Y160.515 E22.04191
G1 X161.314 Y160.519 E22.05205
G1 X126.641 Y160.519 E23.20528
G1 X58.706 Y160.518 E25.46481
G1 X58.553 Y160.517 E25.4699
G1 X57.86 Y160.507 E25.49295
G1 X56.941 Y160.454 E25.52357
G1 X56.03 Y160.321 E25.55419
G1 X55.134 Y160.109 E25.58481
G1 X54.26 Y159.821 E25.61542
G1 X53.413 Y159.458 E25.64607
G1 X52.602 Y159.023 E25.67668
G1 X51.918 Y158.58 E25.70378
G1 X51.743 Y158.457 E25.7109
G1 X51.013 Y157.896 E25.74152
G1 X50.335 Y157.273 E25.77214
G1 X49.796 Y156.691 E25.79853
G1 X49.559 Y156.415 E25.81063
G1 X48.99 Y155.691 E25.84125
G1 X48.486 Y154.92 E25.87189
G1 X48.051 Y154.109 E25.9025
G1 X47.688 Y153.263 E25.93312
G1 X47.4 Y152.389 E25.96373
G1 X47.188 Y151.493 E25.99435
G1 X47.055 Y150.581 E26.025
G1 X47.005 Y149.81 E26.0507
G1 X46.985 Y149.105 E26.07416
G1 X46.981 Y148.804 E26.08417
G1 X46.982 Y71.179 E28.66599
G1 X46.983 Y71.022 E28.67121
G1 X46.993 Y70.347 E28.69366
G1 X47.047 Y69.428 E28.72428
G1 X47.18 Y68.517 E28.7549
G1 X47.392 Y67.621 E28.78553
G1 X47.68 Y66.747 E28.81614
G1 X48.044 Y65.901 E28.84677
G1 X48.479 Y65.09 E28.87738
G1 X48.983 Y64.319 E28.90801
G1 X49.524 Y63.629 E28.93718
G1 X49.789 Y63.318 E28.95077
G1 X50.416 Y62.644 E28.98138
G1 X51.099 Y62.027 E29.012
G0 F6000 X51.38 Y62.313
G1 F1200 X52.226 Y61.688 E29.04698
G1 X52.371 Y61.592 E29.05276
G1 X53.146 Y61.127 E29.08282
G1 X53.958 Y60.733 E29.11284
G1 X54.802 Y60.412 E29.14288
G1 X55.671 Y60.167 E29.17291
G1 X56.559 Y60 E29.20296
G1 X57.824 Y59.899 E29.24517
G1 X58.684 Y59.884 E29.27377
G1 X58.862 Y59.882 E29.2797
G1 X126.64 Y59.882 E31.534
G1 X161.291 Y59.881 E32.6865
G1 X161.438 Y59.882 E32.69139
G1 X162.134 Y59.892 E32.71454
G1 X163.035 Y59.945 E32.74456
G1 X163.928 Y60.077 E32.77458
G1 X164.807 Y60.288 E32.80465
G1 X165.663 Y60.576 E32.83469
G1 X166.49 Y60.939 E32.86473
G1 X167.282 Y61.373 E32.89476
G1 X168.032 Y61.875 E32.92478
G1 X168.524 Y62.261 E32.94558
G1 X168.845 Y62.529 E32.95949
G1 X169.512 Y63.138 E32.98953
G1 X170.123 Y63.804 E33.01959
G1 X170.804 Y64.715 E33.05742
G1 X170.899 Y64.858 E33.06313
G1 X171.365 Y65.631 E33.09315
G1 X171.761 Y66.443 E33.1232
G1 X172.083 Y67.287 E33.15324
G1 X172.329 Y68.156 E33.18328
G1 X172.498 Y69.043 E33.21332
G1 X172.601 Y70.319 E33.25589
G1 X172.616 Y71.157 E33.28377
G1 X172.618 Y71.34 E33.28986
G1 X172.618 Y148.765 E35.86502
G1 X172.617 Y148.906 E35.86971
G1 X172.607 Y149.628 E35.89373
G1 X172.555 Y150.53 E35.92378
G1 X172.423 Y151.423 E35.9538
G1 X172.212 Y152.301 E35.98384
G1 X171.925 Y153.158 E36.0139
G1 X171.563 Y153.985 E36.04392
G1 X171.129 Y154.777 E36.07396
G1 X170.753 Y155.352 E36.09681
G1 X170.63 Y155.527 E36.10393
G1 X170.078 Y156.242 E36.13397
G1 X169.466 Y156.906 E36.164
G1 X168.93 Y157.4 E36.18825
G1 X168.654 Y157.637 E36.20035
G1 X167.943 Y158.195 E36.23041
G1 X167.186 Y158.687 E36.26044
G1 X166.389 Y159.111 E36.29046
G1 X165.557 Y159.462 E36.3205
G1 X164.697 Y159.738 E36.35054
G1 X163.816 Y159.938 E36.38059
G1 X162.921 Y160.058 E36.41062
G1 X162.302 Y160.095 E36.43124
G1 X161.607 Y160.115 E36.45437
G1 X161.314 Y160.119 E36.46412
G1 X126.641 Y160.119 E37.61734
G1 X58.706 Y160.118 E39.87687
G1 X58.559 Y160.117 E39.88176
G1 X57.866 Y160.107 E39.90481
G1 X56.964 Y160.054 E39.93486
G1 X56.071 Y159.921 E39.96489
G1 X55.193 Y159.71 E39.99493
G1 X54.337 Y159.423 E40.02496
G1 X53.51 Y159.06 E40.055
G1 X52.718 Y158.626 E40.08503
G1 X52.148 Y158.253 E40.10769
G1 X51.973 Y158.13 E40.1148
G1 X51.258 Y157.578 E40.14485
G1 X50.594 Y156.966 E40.17488
G1 X50.1 Y156.43 E40.19913
G1 X49.863 Y156.154 E40.21123
G1 X49.305 Y155.443 E40.24129
G1 X48.813 Y154.686 E40.27132
G1 X48.389 Y153.889 E40.30134
G1 X48.038 Y153.057 E40.33138
G1 X47.762 Y152.197 E40.36142
G1 X47.562 Y151.316 E40.39146
G1 X47.442 Y150.421 E40.4215
G1 X47.405 Y149.798 E40.44226
G1 X47.385 Y149.093 E40.46571
G1 X47.381 Y148.804 E40.47533
G1 X47.382 Y71.179 E43.05714
G1 X47.383 Y71.028 E43.06217
G1 X47.393 Y70.353 E43.08462
G1 X47.446 Y69.451 E43.11467
G1 X47.579 Y68.558 E43.1447
G1 X47.791 Y67.68 E43.17474
G1 X48.079 Y66.824 E43.20478
G1 X48.442 Y65.997 E43.23482
G1 X48.876 Y65.205 E43.26486
G1 X49.379 Y64.455 E43.29489
G1 X49.828 Y63.889 E43.31892
G1 X50.093 Y63.578 E43.33251
G1 X50.709 Y62.917 E43.36257
G1 X51.38 Y62.313 E43.39259
G1 F1500 E36.89259
;MESH:Case.stl
G0 F6000 X63.251 Y120.442
G0 X63.095 Y118.592
G0 X64.809 Y119.688
G0 X65.281 Y120.078
G0 X65.642 Y120.573
G0 X65.865 Y121.144
G0 X65.944 Y121.75
G0 X65.881 Y122.24
G0 X65.112 Y124.29
;TYPE:WALL-INNER
G1 F1500 E43.39259
G1 F1200 X65.693 Y123.809 E43.41768
G1 X66.138 Y123.199 E43.44279
G1 X66.412 Y122.497 E43.46786
G1 X66.508 Y121.75 E43.49291
G1 X66.412 Y121.003 E43.51796
G1 X66.138 Y120.301 E43.54302
G1 X65.693 Y119.691 E43.56813
G1 X65.112 Y119.21 E43.59322
G1 X64.428 Y118.89 E43.61834
G1 X63.691 Y118.749 E43.6433
G1 X63.108 Y118.783 E43.66272
G1 X62.928 Y118.797 E43.66872
G1 X62.218 Y119.028 E43.69356
G1 X61.582 Y119.432 E43.71862
G1 X61.067 Y119.981 E43.74365
G1 X60.702 Y120.645 E43.76886
G1 X60.516 Y121.374 E43.79388
G1 X60.516 Y122.121 E43.81872
G1 X60.558 Y122.293 E43.82461
G1 X60.703 Y122.856 E43.84395
G1 X61.066 Y123.518 E43.86906
G1 X61.583 Y124.068 E43.89417
G1 X62.218 Y124.472 E43.9192
G1 X62.937 Y124.705 E43.94434
G1 X63.64 Y124.747 E43.96776
G1 X63.691 Y124.751 E43.96946
G1 X64.428 Y124.61 E43.99442
G1 X65.112 Y124.29 E44.01954
G0 F6000 X64.896 Y123.949
G1 F1200 X65.399 Y123.533 E44.04125
G1 X65.784 Y123.005 E44.06298
G1 X66.022 Y122.397 E44.0847
G1 X66.105 Y121.75 E44.10639
G1 X66.022 Y121.103 E44.12809
G1 X65.784 Y120.495 E44.1498
G1 X65.399 Y119.967 E44.17154
G1 X64.896 Y119.551 E44.19325
G1 X64.304 Y119.273 E44.215
G1 X63.665 Y119.151 E44.23664
G1 X63.135 Y119.182 E44.2543
G1 X63.007 Y119.192 E44.25857
G1 X62.39 Y119.393 E44.28015
G1 X61.839 Y119.743 E44.30186
G1 X61.393 Y120.218 E44.32353
G1 X61.077 Y120.793 E44.34536
G1 X60.916 Y121.424 E44.36701
G1 X60.916 Y122.073 E44.3886
G1 X60.946 Y122.196 E44.39281
G1 X61.078 Y122.708 E44.4104
G1 X61.392 Y123.281 E44.43213
G1 X61.84 Y123.757 E44.45387
G1 X62.39 Y124.107 E44.47555
G1 X63.012 Y124.309 E44.4973
G1 X63.665 Y124.349 E44.51906
G1 X64.304 Y124.227 E44.5407
G1 X64.896 Y123.949 E44.56245
G0 F6000 X64.68 Y123.609
;TYPE:WALL-OUTER
G1 F1200 X65.105 Y123.257 E44.58081
G1 X65.43 Y122.811 E44.59916
G1 X65.632 Y122.297 E44.61753
G1 X65.702 Y121.75 E44.63587
G1 X65.632 Y121.203 E44.65422
G1 X65.43 Y120.689 E44.67258
G1 X65.105 Y120.243 E44.69094
G1 X64.68 Y119.891 E44.70929
G1 X64.18 Y119.656 E44.72767
G1 X63.639 Y119.553 E44.74598
G1 X63.162 Y119.581 E44.76188
G1 X63.086 Y119.587 E44.76441
G1 X62.562 Y119.758 E44.78275
G1 X62.096 Y120.054 E44.80111
G1 X61.719 Y120.455 E44.81941
G1 X61.452 Y120.941 E44.83786
G1 X61.316 Y121.474 E44.85615
G1 X61.316 Y122.025 E44.87448
G1 X61.334 Y122.099 E44.87701
G1 X61.453 Y122.56 E44.89285
G1 X61.718 Y123.044 E44.9112
G1 X62.097 Y123.446 E44.92958
G1 X62.562 Y123.742 E44.94791
G1 X63.087 Y123.913 E44.96627
G1 X63.639 Y123.947 E44.98467
G1 X64.18 Y123.844 E45.00299
G1 X64.68 Y123.609 E45.02136
G0 F6000 X64.915 Y123.98
G1 F1500 E38.52136
G0 F6000 X65.833 Y123.941
G0 X64.47 Y122.661
G0 X74.165 Y123.941
G0 X73.1 Y123.941
G0 X73.072 Y130.628
G0 X146.5 Y131.2
;TYPE:WALL-INNER
G1 F1500 E45.02136
G1 F1200 X146.5 Y104.2 E45.91938
G1 X72.5 Y104.2 E48.38063
G1 X72.5 Y131.2 E49.27866
G1 X146.5 Y131.2 E51.73991
G0 F6000 X146.1 Y130.8
G1 F1200 X146.1 Y104.6 E52.61132
G1 X72.9 Y104.6 E55.04597
G1 X72.9 Y130.8 E55.91738
G1 X146.1 Y130.8 E58.35202
G0 F6000 X145.7 Y130.4
;TYPE:WALL-OUTER
G1 F1200 X145.7 Y105 E59.19683
G1 X73.3 Y105 E61.60486
G1 X73.3 Y130.4 E62.44967
G1 X145.7 Y130.4 E64.85771
G1 F1500 E58.35771
G0 F6000 X146 Y130.4
G0 X145.936 Y130.605
G0 X126.641 Y131.39
G0 X126.641 Y129.535
G0 X126.639 Y150.584
G0 X126.639 Y148.728
G0 X126.641 Y148.919
;TYPE:WALL-INNER
G1 F1500 E64.85771
G1 F1200 X58.581 Y148.918 E67.12139
G1 X58.582 Y71.082 E69.71023
G1 X126.64 Y71.082 E71.97384
G1 X161.219 Y71.081 E73.12395
G1 X161.418 Y71.081 E73.13057
G1 X161.418 Y71.28 E73.13485
G1 X161.418 Y148.919 E75.71713
G1 X126.641 Y148.919 E76.87382
G0 F6000 X126.641 Y149.319
G1 F1200 X58.224 Y149.318 E79.14938
G1 X58.181 Y149.265 E79.15165
G1 X58.182 Y70.733 E81.76363
G1 X58.223 Y70.682 E81.76581
G1 X126.64 Y70.682 E84.04137
G1 X161.766 Y70.681 E85.20966
G1 X161.818 Y70.723 E85.21189
G1 X161.818 Y149.276 E87.82457
G1 X161.765 Y149.319 E87.82684
G1 X126.641 Y149.319 E88.99507
G0 F6000 X126.641 Y149.719
;TYPE:WALL-OUTER
G1 F1200 X58.058 Y149.718 E91.27615
G1 X58.005 Y149.684 E91.27824
G1 X57.819 Y149.454 E91.28808
G1 X57.781 Y149.416 E91.28987
G1 X57.782 Y70.583 E93.91186
G1 X57.818 Y70.547 E93.91356
G1 X58.003 Y70.317 E93.92338
G1 X58.058 Y70.282 E93.92554
G1 X126.64 Y70.282 E96.20659
G1 X161.916 Y70.281 E97.37987
G1 X161.953 Y70.318 E97.38162
G1 X162.183 Y70.503 E97.39143
G1 X162.218 Y70.558 E97.3936
G1 X162.218 Y149.442 E100.01729
G1 X162.184 Y149.495 E100.01939
G1 X161.954 Y149.681 E100.02923
G1 X161.916 Y149.719 E100.03101
G1 X126.641 Y149.719 E101.20426
G0 F6000 X126.641 Y149.279
G0 X126.641 Y148.529
;TYPE:SKIN
G1 F1200 X58.971 Y148.528 E103.45498
G1 X58.972 Y71.472 E106.01787
G1 X126.64 Y71.472 E108.26852
G1 X161.028 Y71.471 E109.41227
G1 X161.028 Y148.529 E111.97523
G1 X126.641 Y148.529 E113.11894
G1 F1500 E106.61894
G0 F6000 X126.641 Y148.809
G0 X146.61 Y148.709
G0 X146.61 Y150.584
G0 X144.573 Y129.535
G0 X144.573 Y131.37
G0 X146.61 Y131.34
G0 X146.89 Y131.59
G1 F1500 E113.11894
G1 F1200 X146.89 Y103.81 E114.04291
G1 X72.11 Y103.81 E116.5301
G1 X72.11 Y131.59 E117.45407
G1 X146.89 Y131.59 E119.94126
G1 F1500 E113.44126
G0 F6000 X146.61 Y131.34
G0 X73.1 Y123.252
G0 X74.165 Y123.252
G0 X64.789 Y122.084
G0 X66.598 Y122.545
G0 X66.236 Y123.252
