;FLAVOR:Marlin
;TIME:22677
;Filament used: 15.2365m
;Layer height: 0.2
;MINX:46.582
;MINY:64.081
;MINZ:0.2
;MAXX:173.419
;MAXY:155.919
;MAXZ:46
;Generated with Cura_SteamEngine 4.4.1
M140 S60
M105
M190 S60
M104 S200
M105
M109 S200
M82 ;absolute extrusion mode
M201 X500.00 Y500.00 Z100.00 E5000.00 ;Setup machine max acceleration
M203 X500.00 Y500.00 Z10.00 E50.00 ;Setup machine max feedrate
M204 P500.00 R1000.00 T500.00 ;Setup Print/Retract/Travel acceleration
M205 X8.00 Y8.00 Z0.40 E5.00 ;Setup Jerk
M220 S100 ;Reset Feedrate
M221 S100 ;Reset Flowrate

G28 ;Home

G92 E0 ;Reset Extruder
G1 Z2.0 F3000 ;Move Z Axis up
G1 X10.1 Y20 Z0.28 F5000.0 ;Move to start position
G1 X10.1 Y200.0 Z0.28 F1500.0 E15 ;Draw the first line
G1 X10.4 Y200.0 Z0.28 F5000.0 ;Move to side a little
G1 X10.4 Y20 Z0.28 F1500.0 E30 ;Draw the second line
G92 E0 ;Reset Extruder
G1 Z2.0 F3000 ;Move Z Axis up

G92 E0
G92 E0
G1 F1500 E-6.5
;LAYER_COUNT:230
;LAYER:0
M107
G0 F6000 X50.754 Y66.794 Z0.2
;TYPE:SKIRT
G1 F1500 E0
G1 F1200 X51.801 Y66.01 E0.0435
G1 X51.945 Y65.915 E0.04924
G1 X52.749 Y65.433 E0.08042
G1 X53.591 Y65.02 E0.11161
G1 X54.465 Y64.681 E0.14279
G1 X55.366 Y64.418 E0.17401
G1 X56.285 Y64.232 E0.2052
G1 X57.217 Y64.125 E0.2364
G1 X57.81 Y64.099 E0.25614
G1 X58.67 Y64.084 E0.28475
G1 X58.862 Y64.082 E0.29113
G1 X126.64 Y64.082 E2.54544
G1 X161.291 Y64.081 E3.69794
G1 X161.449 Y64.082 E3.70319
G1 X162.145 Y64.092 E3.72634
G1 X163.081 Y64.146 E3.75753
G1 X164.01 Y64.279 E3.78874
G1 X164.923 Y64.49 E3.81991
G1 X165.816 Y64.779 E3.85113
G1 X166.68 Y65.142 E3.8823
G1 X167.511 Y65.578 E3.91351
G1 X168.301 Y66.084 E3.94471
G1 X169.037 Y66.647 E3.97553
G1 X169.358 Y66.915 E3.98944
G1 X170.051 Y67.546 E4.02061
G1 X170.689 Y68.234 E4.05182
G1 X171.47 Y69.272 E4.09503
G1 X171.565 Y69.415 E4.10074
G1 X172.051 Y70.218 E4.13195
G1 X172.466 Y71.059 E4.16315
G1 X172.808 Y71.932 E4.19433
G1 X173.074 Y72.831 E4.22551
G1 X173.263 Y73.75 E4.25672
G1 X173.372 Y74.681 E4.2879
G1 X173.401 Y75.305 E4.30867
G1 X173.416 Y76.143 E4.33655
G1 X173.418 Y76.34 E4.3431
G1 X173.419 Y143.791 E6.58653
G1 X173.418 Y143.951 E6.59185
G1 X173.408 Y144.637 E6.61467
G1 X173.354 Y145.574 E6.64589
G1 X173.221 Y146.502 E6.67707
G1 X173.009 Y147.416 E6.70827
G1 X172.72 Y148.308 E6.73946
G1 X172.357 Y149.172 E6.77063
G1 X171.746 Y150.292 E6.81307
G1 X171.642 Y150.459 E6.81961
G1 X171.113 Y151.233 E6.85079
G1 X170.52 Y151.96 E6.88199
G1 X169.584 Y152.891 E6.9259
G1 X169.405 Y153.049 E6.93384
G1 X168.553 Y153.729 E6.9701
G1 X168.403 Y153.837 E6.97625
G1 X167.62 Y154.352 E7.00742
G1 X166.795 Y154.798 E7.03861
G1 X165.935 Y155.173 E7.06982
G1 X165.046 Y155.473 E7.10102
G1 X164.135 Y155.696 E7.13222
G1 X163.209 Y155.841 E7.16339
G1 X162.125 Y155.909 E7.19952
G1 X161.462 Y155.918 E7.22157
G1 X161.313 Y155.919 E7.22653
G1 X93.363 Y155.918 E9.48655
G1 X58.709 Y155.919 E10.63915
G1 X58.548 Y155.918 E10.6445
G1 X57.865 Y155.908 E10.66722
G1 X56.929 Y155.854 E10.69841
G1 X56 Y155.721 E10.72962
G1 X55.004 Y155.486 E10.76366
G1 X54.787 Y155.424 E10.77116
G1 X53.897 Y155.128 E10.80236
G1 X53.036 Y154.757 E10.83354
G1 X52.209 Y154.315 E10.86473
G1 X51.423 Y153.803 E10.89593
G1 X50.683 Y153.227 E10.92712
G1 X50.079 Y152.673 E10.95438
G1 X49.917 Y152.513 E10.96195
G1 X49.279 Y151.826 E10.99314
G1 X48.701 Y151.088 E11.02431
G1 X48.188 Y150.302 E11.05553
G1 X47.744 Y149.476 E11.08672
G1 X47.372 Y148.615 E11.11792
G1 X47.106 Y147.832 E11.14542
G1 X47.052 Y147.651 E11.1517
G1 X46.823 Y146.741 E11.18291
G1 X46.671 Y145.816 E11.21409
G1 X46.598 Y144.839 E11.24668
G1 X46.588 Y144.509 E11.25766
G1 X46.583 Y144.176 E11.26874
G1 X46.582 Y76.179 E13.53033
G1 X46.583 Y76.015 E13.53578
G1 X46.593 Y75.345 E13.55807
G1 X46.647 Y74.409 E13.58925
G1 X46.781 Y73.48 E13.62047
G1 X46.993 Y72.567 E13.65164
G1 X47.282 Y71.674 E13.68286
G1 X47.646 Y70.81 E13.71404
G1 X48.083 Y69.98 E13.74524
G1 X48.588 Y69.19 E13.77643
G1 X49.166 Y68.438 E13.80797
G1 X49.432 Y68.121 E13.82174
G1 X50.065 Y67.429 E13.85293
G1 X50.754 Y66.794 E13.88409
G0 F6000 X51.038 Y67.077
G1 F1200 X52.021 Y66.344 E13.92488
G1 X52.165 Y66.249 E13.93062
G1 X52.955 Y65.776 E13.96124
G1 X53.782 Y65.373 E13.99184
G1 X54.642 Y65.044 E14.02246
G1 X55.527 Y64.79 E14.05309
G1 X56.431 Y64.614 E14.08372
G1 X57.346 Y64.517 E14.11432
G1 X57.817 Y64.499 E14.13
G1 X58.677 Y64.484 E14.15861
G1 X58.862 Y64.482 E14.16476
G1 X126.64 Y64.482 E16.41907
G1 X161.291 Y64.481 E17.57156
G1 X161.443 Y64.482 E17.57662
G1 X162.139 Y64.492 E17.59977
G1 X163.058 Y64.545 E17.63039
G1 X163.969 Y64.678 E17.66101
G1 X164.866 Y64.889 E17.69166
G1 X165.74 Y65.178 E17.72228
G1 X166.586 Y65.541 E17.75289
G1 X167.397 Y65.976 E17.7835
G1 X168.168 Y66.48 E17.81414
G1 X168.78 Y66.954 E17.83989
G1 X169.101 Y67.222 E17.8538
G1 X169.782 Y67.842 E17.88443
G1 X170.406 Y68.519 E17.91505
G1 X171.137 Y69.493 E17.95555
G1 X171.232 Y69.636 E17.96126
G1 X171.708 Y70.425 E17.99191
G1 X172.113 Y71.251 E18.02251
G1 X172.446 Y72.11 E18.05315
G1 X172.702 Y72.994 E18.08376
G1 X172.881 Y73.897 E18.11438
G1 X172.981 Y74.812 E18.14499
G1 X173.001 Y75.312 E18.16164
G1 X173.016 Y76.15 E18.18951
G1 X173.018 Y76.34 E18.19583
G1 X173.019 Y143.791 E20.43926
G1 X173.018 Y143.946 E20.44442
G1 X173.008 Y144.632 E20.46724
G1 X172.954 Y145.551 E20.49786
G1 X172.822 Y146.462 E20.52847
G1 X172.61 Y147.358 E20.5591
G1 X172.322 Y148.232 E20.5897
G1 X171.958 Y149.078 E20.62034
G1 X171.407 Y150.08 E20.65837
G1 X171.303 Y150.247 E20.66491
G1 X170.783 Y151.007 E20.69554
G1 X170.199 Y151.719 E20.72617
G1 X169.32 Y152.591 E20.76735
G1 X169.141 Y152.749 E20.77529
G1 X168.32 Y153.404 E20.81022
G1 X168.17 Y153.512 E20.81637
G1 X167.4 Y154.017 E20.847
G1 X166.589 Y154.454 E20.87764
G1 X165.744 Y154.818 E20.90824
G1 X164.87 Y155.107 E20.93886
G1 X163.974 Y155.32 E20.96949
G1 X163.063 Y155.454 E21.00011
G1 X162.12 Y155.509 E21.03153
G1 X161.457 Y155.518 E21.05359
G1 X161.313 Y155.519 E21.05837
G1 X93.363 Y155.518 E23.3184
G1 X58.709 Y155.519 E24.471
G1 X58.554 Y155.518 E24.47615
G1 X57.871 Y155.508 E24.49887
G1 X56.952 Y155.454 E24.52949
G1 X56.041 Y155.321 E24.56011
G1 X55.114 Y155.101 E24.5918
G1 X54.897 Y155.039 E24.59931
G1 X54.024 Y154.748 E24.62991
G1 X53.179 Y154.382 E24.66054
G1 X52.369 Y153.944 E24.69117
G1 X51.6 Y153.438 E24.72179
G1 X50.878 Y152.867 E24.7524
G1 X50.36 Y152.389 E24.77585
G1 X50.198 Y152.229 E24.78342
G1 X49.572 Y151.554 E24.81404
G1 X49.007 Y150.827 E24.84466
G1 X48.506 Y150.054 E24.8753
G1 X48.075 Y149.241 E24.9059
G1 X47.716 Y148.393 E24.93653
G1 X47.489 Y147.717 E24.96025
G1 X47.435 Y147.536 E24.96653
G1 X47.211 Y146.644 E24.99712
G1 X47.064 Y145.735 E25.02775
G1 X46.998 Y144.827 E25.05803
G1 X46.988 Y144.497 E25.06901
G1 X46.983 Y144.176 E25.07969
G1 X46.982 Y76.179 E27.34128
G1 X46.983 Y76.021 E27.34653
G1 X46.993 Y75.351 E27.36882
G1 X47.047 Y74.432 E27.39944
G1 X47.18 Y73.521 E27.43006
G1 X47.392 Y72.625 E27.46068
G1 X47.681 Y71.751 E27.4913
G1 X48.044 Y70.905 E27.52192
G1 X48.48 Y70.094 E27.55254
G1 X48.984 Y69.323 E27.58318
G1 X49.472 Y68.695 E27.60963
G1 X49.738 Y68.378 E27.6234
G1 X50.36 Y67.699 E27.65402
G1 X51.038 Y67.077 E27.68462
G0 F6000 X51.322 Y67.361
G1 F1200 X52.241 Y66.678 E27.72271
G1 X52.385 Y66.583 E27.72845
G1 X53.16 Y66.119 E27.75849
G1 X53.973 Y65.726 E27.78852
G1 X54.818 Y65.407 E27.81856
G1 X55.688 Y65.163 E27.84862
G1 X56.575 Y64.997 E27.87863
G1 X57.824 Y64.899 E27.9203
G1 X58.684 Y64.884 E27.94891
G1 X58.862 Y64.882 E27.95483
G1 X126.64 Y64.882 E30.20913
G1 X161.291 Y64.881 E31.36163
G1 X161.438 Y64.882 E31.36652
G1 X162.134 Y64.892 E31.38967
G1 X163.035 Y64.945 E31.41969
G1 X163.928 Y65.077 E31.44972
G1 X164.807 Y65.288 E31.47978
G1 X165.663 Y65.576 E31.50982
G1 X166.49 Y65.939 E31.53986
G1 X167.282 Y66.373 E31.5699
G1 X168.032 Y66.875 E31.59991
G1 X168.524 Y67.261 E31.62071
G1 X168.845 Y67.529 E31.63462
G1 X169.512 Y68.138 E31.66466
G1 X170.123 Y68.804 E31.69472
G1 X170.804 Y69.715 E31.73255
G1 X170.899 Y69.858 E31.73826
G1 X171.365 Y70.631 E31.76828
G1 X171.761 Y71.443 E31.79833
G1 X172.083 Y72.287 E31.82838
G1 X172.329 Y73.156 E31.85842
G1 X172.498 Y74.043 E31.88845
G1 X172.601 Y75.319 E31.93103
G1 X172.616 Y76.157 E31.9589
G1 X172.618 Y76.34 E31.96499
G1 X172.619 Y143.791 E34.20842
G1 X172.618 Y143.94 E34.21338
G1 X172.608 Y144.626 E34.23619
G1 X172.555 Y145.527 E34.26621
G1 X172.422 Y146.421 E34.29628
G1 X172.211 Y147.299 E34.32631
G1 X171.923 Y148.155 E34.35635
G1 X171.56 Y148.982 E34.38639
G1 X171.067 Y149.869 E34.42014
G1 X170.963 Y150.036 E34.42668
G1 X170.452 Y150.781 E34.45673
G1 X169.878 Y151.477 E34.48674
G1 X169.055 Y152.291 E34.52524
G1 X168.876 Y152.449 E34.53318
G1 X168.086 Y153.08 E34.56681
G1 X167.936 Y153.188 E34.57295
G1 X167.18 Y153.682 E34.60299
G1 X166.384 Y154.108 E34.63302
G1 X165.553 Y154.462 E34.66306
G1 X164.694 Y154.741 E34.6931
G1 X163.814 Y154.943 E34.72313
G1 X162.919 Y155.066 E34.75318
G1 X162.114 Y155.109 E34.77999
G1 X161.451 Y155.118 E34.80204
G1 X161.313 Y155.119 E34.80663
G1 X93.363 Y155.118 E37.06666
G1 X58.709 Y155.119 E38.21926
G1 X58.56 Y155.118 E38.22421
G1 X57.877 Y155.108 E38.24693
G1 X56.975 Y155.055 E38.27699
G1 X56.082 Y154.922 E38.30701
G1 X55.224 Y154.717 E38.33635
G1 X55.007 Y154.655 E38.34386
G1 X54.15 Y154.368 E38.37392
G1 X53.322 Y154.007 E38.40396
G1 X52.53 Y153.575 E38.43397
G1 X51.779 Y153.073 E38.46401
G1 X51.075 Y152.508 E38.49404
G1 X50.641 Y152.104 E38.51376
G1 X50.479 Y151.944 E38.52133
G1 X49.866 Y151.282 E38.55134
G1 X49.313 Y150.568 E38.58138
G1 X48.825 Y149.807 E38.61145
G1 X48.407 Y149.007 E38.64147
G1 X48.061 Y148.173 E38.6715
G1 X47.873 Y147.603 E38.69146
G1 X47.819 Y147.422 E38.69774
G1 X47.599 Y146.546 E38.72778
G1 X47.458 Y145.654 E38.75782
G1 X47.398 Y144.815 E38.7858
G1 X47.388 Y144.485 E38.79678
G1 X47.383 Y144.176 E38.80706
G1 X47.382 Y76.179 E41.06865
G1 X47.383 Y76.027 E41.0737
G1 X47.393 Y75.357 E41.09599
G1 X47.447 Y74.455 E41.12604
G1 X47.58 Y73.562 E41.15607
G1 X47.791 Y72.684 E41.18611
G1 X48.079 Y71.828 E41.21614
G1 X48.442 Y71.001 E41.24618
G1 X48.877 Y70.209 E41.27624
G1 X49.38 Y69.459 E41.30627
G1 X49.778 Y68.952 E41.32771
G1 X50.044 Y68.635 E41.34147
G1 X50.655 Y67.97 E41.37151
G1 X51.322 Y67.361 E41.40155
G1 F1500 E34.90155
;MESH:Case.stl
G0 F6000 X112.963 Y110.301
G0 X144.847 Y110.353
G0 X144.907 Y132.555
G0 X152.721 Y137.998
G0 X150.891 Y138.313
G0 X152.954 Y140.936
;TYPE:WALL-INNER
G1 F1500 E41.40155
G1 F1200 X153.148 Y141.039 E41.40886
G1 X153.463 Y141.188 E41.42045
G1 X153.676 Y141.276 E41.42811
G1 X153.908 Y141.347 E41.43618
G1 X154.113 Y141.393 E41.44317
G1 X154.447 Y141.457 E41.45448
G1 X154.683 Y141.49 E41.46241
G1 X154.924 Y141.497 E41.47043
G1 X155.128 Y141.492 E41.47721
G1 X155.485 Y141.467 E41.48912
G1 X155.708 Y141.435 E41.49661
G1 X155.944 Y141.387 E41.50462
G1 X156.474 Y141.215 E41.52315
G1 X156.695 Y141.123 E41.53111
G1 X156.91 Y141.012 E41.53916
G1 X157.368 Y140.72 E41.55723
G1 X157.564 Y140.572 E41.5654
G1 X157.742 Y140.407 E41.57347
G1 X158.116 Y140.007 E41.59168
G1 X158.264 Y139.812 E41.59982
G1 X158.391 Y139.614 E41.60765
G1 X158.653 Y139.128 E41.62601
G1 X158.748 Y138.898 E41.63429
G1 X158.816 Y138.679 E41.64192
G1 X158.818 Y138.668 E41.64229
G1 X158.949 Y138.145 E41.66022
G1 X158.981 Y137.888 E41.66883
G1 X158.989 Y137.671 E41.67606
G1 X158.99 Y137.328 E41.68746
G1 X158.98 Y137.108 E41.69479
G1 X158.951 Y136.868 E41.70283
G1 X158.902 Y136.65 E41.71026
G1 X158.815 Y136.316 E41.72174
G1 X158.748 Y136.102 E41.7292
G1 X158.656 Y135.878 E41.73725
G1 X158.554 Y135.688 E41.74443
G1 X158.391 Y135.385 E41.75587
G1 X158.264 Y135.187 E41.76369
G1 X158.116 Y134.992 E41.77184
G1 X157.743 Y134.594 E41.78998
G1 X157.564 Y134.428 E41.7981
G1 X157.368 Y134.28 E41.80627
G1 X156.913 Y133.991 E41.82419
G1 X156.696 Y133.876 E41.83236
G1 X156.472 Y133.784 E41.84042
G1 X155.944 Y133.611 E41.8589
G1 X155.702 Y133.563 E41.8671
G1 X155.477 Y133.533 E41.87465
G1 X154.938 Y133.503 E41.89261
G1 X154.685 Y133.51 E41.90102
G1 X154.451 Y133.542 E41.90888
G1 X154.111 Y133.607 E41.92039
G1 X153.906 Y133.654 E41.92739
G1 X153.68 Y133.723 E41.93525
G1 X153.465 Y133.811 E41.94297
G1 X153.149 Y133.96 E41.95459
G1 X152.952 Y134.064 E41.962
G1 X152.753 Y134.192 E41.96987
G1 X152.58 Y134.323 E41.97709
G1 X152.308 Y134.547 E41.98881
G1 X152.142 Y134.702 E41.99636
G1 X151.982 Y134.876 E42.00423
G1 X151.852 Y135.045 E42.01132
G1 X151.649 Y135.324 E42.02279
G1 X151.521 Y135.523 E42.03066
G1 X151.408 Y135.742 E42.03886
G1 X151.212 Y136.233 E42.05644
G1 X151.206 Y136.246 E42.05692
G1 X151.13 Y136.481 E42.06514
G1 X151.079 Y136.72 E42.07326
G1 X151.01 Y137.257 E42.09127
G1 X151 Y137.497 E42.09926
G1 X151.009 Y137.741 E42.10738
G1 X151.079 Y138.28 E42.12546
G1 X151.13 Y138.517 E42.13352
G1 X151.203 Y138.752 E42.14171
G1 X151.408 Y139.258 E42.15987
G1 X151.521 Y139.476 E42.16803
G1 X151.648 Y139.677 E42.17594
G1 X151.975 Y140.117 E42.19417
G1 X152.142 Y140.301 E42.20244
G1 X152.309 Y140.454 E42.20997
G1 X152.579 Y140.676 E42.2216
G1 X152.753 Y140.808 E42.22886
G1 X152.954 Y140.936 E42.23679
G0 F6000 X153.155 Y140.59
G1 F1200 X153.327 Y140.681 E42.24326
G1 X153.625 Y140.822 E42.25422
G1 X153.811 Y140.899 E42.26092
G1 X154.01 Y140.96 E42.26784
G1 X154.194 Y141.001 E42.27411
G1 X154.513 Y141.062 E42.28491
G1 X154.717 Y141.091 E42.29177
G1 X154.924 Y141.097 E42.29866
G1 X155.109 Y141.092 E42.30481
G1 X155.443 Y141.069 E42.31595
G1 X155.64 Y141.041 E42.32256
G1 X155.842 Y141 E42.32942
G1 X156.335 Y140.84 E42.34666
G1 X156.526 Y140.76 E42.35355
G1 X156.71 Y140.665 E42.36043
G1 X157.14 Y140.391 E42.37739
G1 X157.307 Y140.265 E42.38435
G1 X157.46 Y140.123 E42.39129
G1 X157.81 Y139.749 E42.40833
G1 X157.936 Y139.583 E42.41526
G1 X158.046 Y139.411 E42.42205
G1 X158.291 Y138.957 E42.43921
G1 X158.371 Y138.762 E42.44622
G1 X158.431 Y138.571 E42.45288
G1 X158.555 Y138.072 E42.46998
G1 X158.582 Y137.856 E42.47722
G1 X158.589 Y137.663 E42.48364
G1 X158.59 Y137.337 E42.49449
G1 X158.581 Y137.141 E42.50101
G1 X158.556 Y136.936 E42.50788
G1 X158.513 Y136.744 E42.51443
G1 X158.43 Y136.426 E42.52536
G1 X158.371 Y136.238 E42.53191
G1 X158.293 Y136.047 E42.53877
G1 X158.203 Y135.876 E42.5452
G1 X158.046 Y135.589 E42.55608
G1 X157.936 Y135.416 E42.5629
G1 X157.81 Y135.251 E42.5698
G1 X157.461 Y134.878 E42.58679
G1 X157.307 Y134.735 E42.59378
G1 X157.14 Y134.609 E42.60074
G1 X156.712 Y134.337 E42.61761
G1 X156.526 Y134.239 E42.6246
G1 X156.334 Y134.16 E42.63151
G1 X155.842 Y133.999 E42.64872
G1 X155.637 Y133.958 E42.65568
G1 X155.439 Y133.932 E42.66232
G1 X154.932 Y133.903 E42.67921
G1 X154.718 Y133.909 E42.68633
G1 X154.516 Y133.937 E42.69311
G1 X154.193 Y133.999 E42.70405
G1 X154.009 Y134.041 E42.71033
G1 X153.814 Y134.1 E42.71711
G1 X153.626 Y134.177 E42.72386
G1 X153.328 Y134.318 E42.73483
G1 X153.154 Y134.41 E42.74137
G1 X152.982 Y134.52 E42.74817
G1 X152.828 Y134.637 E42.7546
G1 X152.572 Y134.848 E42.76563
G1 X152.426 Y134.984 E42.77227
G1 X152.288 Y135.134 E42.77905
G1 X152.172 Y135.285 E42.78538
G1 X151.979 Y135.55 E42.79628
G1 X151.868 Y135.723 E42.80312
G1 X151.772 Y135.909 E42.81008
G1 X151.582 Y136.382 E42.82704
G1 X151.517 Y136.584 E42.83409
G1 X151.474 Y136.787 E42.841
G1 X151.409 Y137.291 E42.8579
G1 X151.4 Y137.498 E42.86479
G1 X151.408 Y137.707 E42.87175
G1 X151.474 Y138.213 E42.88872
G1 X151.517 Y138.416 E42.89562
G1 X151.58 Y138.617 E42.90263
G1 X151.772 Y139.091 E42.91964
G1 X151.868 Y139.277 E42.9266
G1 X151.978 Y139.45 E42.93342
G1 X152.284 Y139.862 E42.95048
G1 X152.426 Y140.018 E42.9575
G1 X152.572 Y140.152 E42.96409
G1 X152.827 Y140.362 E42.97508
