;FLAVOR:Marlin
;TIME:22661
;Filament used: 15.4961m
;Layer height: 0.2
;MINX:45.5
;MINY:59.081
;MINZ:0.2
;MAXX:173.918
;MAXY:160.919
;MAXZ:26
;Generated with Cura_SteamEngine 4.4.1
M140 S60
M105
M190 S60
M104 S200
M105
M109 S200
M82 ;absolute extrusion mode
M201 X500.00 Y500.00 Z100.00 E5000.00 ;Setup machine max acceleration
M203 X500.00 Y500.00 Z10.00 E50.00 ;Setup machine max feedrate
M204 P500.00 R1000.00 T500.00 ;Setup Print/Retract/Travel acceleration
M205 X8.00 Y8.00 Z0.40 E5.00 ;Setup Jerk
M220 S100 ;Reset Feedrate
M221 S100 ;Reset Flowrate

G28 ;Home

G92 E0 ;Reset Extruder
G1 Z2.0 F3000 ;Move Z Axis up
G1 X10.1 Y20 Z0.28 F5000.0 ;Move to start position
G1 X10.1 Y200.0 Z0.28 F1500.0 E15 ;Draw the first line
G1 X10.4 Y200.0 Z0.28 F5000.0 ;Move to side a little
G1 X10.4 Y20 Z0.28 F1500.0 E30 ;Draw the second line
G92 E0 ;Reset Extruder
G1 Z2.0 F3000 ;Move Z Axis up

G92 E0
G92 E0
G1 F1500 E-6.5
;LAYER_COUNT:130
;LAYER:0
M107
G0 F6000 X51.317 Y61.741 Z0.2
;TYPE:SKIRT
G1 F1500 E0
G1 F1200 X52.285 Y61.021 E0.04013
G1 X52.43 Y60.925 E0.04591
G1 X53.233 Y60.441 E0.07709
G1 X54.075 Y60.027 E0.1083
G1 X54.948 Y59.687 E0.13946
G1 X55.848 Y59.422 E0.17067
G1 X56.767 Y59.235 E0.20186
G1 X57.699 Y59.126 E0.23307
G1 X58.31 Y59.099 E0.25341
G1 X59.17 Y59.084 E0.28202
G1 X59.362 Y59.082 E0.2884
G1 X127.14 Y59.082 E2.54271
G1 X161.791 Y59.081 E3.69521
G1 X161.949 Y59.082 E3.70046
G1 X162.645 Y59.092 E3.72361
G1 X163.581 Y59.146 E3.7548
G1 X164.51 Y59.279 E3.78601
G1 X165.423 Y59.49 E3.81718
G1 X166.316 Y59.779 E3.84839
G1 X167.18 Y60.142 E3.87956
G1 X168.011 Y60.578 E3.91078
G1 X168.801 Y61.084 E3.94198
G1 X169.537 Y61.647 E3.9728
G1 X169.858 Y61.915 E3.98671
G1 X170.551 Y62.546 E4.01788
G1 X171.189 Y63.234 E4.04909
G1 X171.97 Y64.272 E4.09229
G1 X172.065 Y64.415 E4.098
G1 X172.551 Y65.218 E4.12922
G1 X172.966 Y66.059 E4.16042
G1 X173.308 Y66.932 E4.1916
G1 X173.574 Y67.831 E4.22278
G1 X173.763 Y68.75 E4.25399
G1 X173.872 Y69.681 E4.28516
G1 X173.901 Y70.305 E4.30594
G1 X173.916 Y71.143 E4.33382
G1 X173.918 Y71.34 E4.34037
G1 X173.918 Y148.765 E6.91554
G1 X173.917 Y148.917 E6.92059
G1 X173.907 Y149.639 E6.94461
G1 X173.854 Y150.576 E6.97582
G1 X173.721 Y151.504 E7.007
G1 X173.51 Y152.418 E7.0382
G1 X173.222 Y153.31 E7.06938
G1 X172.859 Y154.175 E7.10058
G1 X172.423 Y155.006 E7.13179
G1 X171.907 Y155.812 E7.16362
G1 X171.784 Y155.987 E7.17074
G1 X171.213 Y156.731 E7.20193
G1 X170.58 Y157.423 E7.23312
G1 X169.951 Y158.007 E7.26167
G1 X169.675 Y158.244 E7.27377
G1 X168.938 Y158.825 E7.30498
G1 X168.155 Y159.34 E7.33615
G1 X167.33 Y159.786 E7.36735
G1 X166.47 Y160.161 E7.39855
G1 X165.582 Y160.461 E7.42973
G1 X164.671 Y160.685 E7.46093
G1 X163.744 Y160.829 E7.49213
G1 X162.825 Y160.894 E7.52277
G1 X162.13 Y160.914 E7.5459
G1 X161.814 Y160.919 E7.55641
G1 X127.141 Y160.919 E8.70964
G1 X59.206 Y160.918 E10.96917
G1 X59.047 Y160.917 E10.97446
G1 X58.354 Y160.907 E10.99751
G1 X57.418 Y160.853 E11.02869
G1 X56.49 Y160.72 E11.05987
G1 X55.576 Y160.509 E11.09107
G1 X54.684 Y160.22 E11.12226
G1 X53.819 Y159.856 E11.15347
G1 X52.989 Y159.42 E11.18465
G1 X52.188 Y158.907 E11.21629
G1 X52.013 Y158.784 E11.2234
G1 X51.269 Y158.213 E11.2546
G1 X50.577 Y157.58 E11.28579
G1 X49.993 Y156.951 E11.31434
G1 X49.756 Y156.675 E11.32644
G1 X49.175 Y155.938 E11.35765
G1 X48.66 Y155.155 E11.38882
G1 X48.214 Y154.33 E11.42002
G1 X47.839 Y153.47 E11.45122
G1 X47.539 Y152.582 E11.48239
G1 X47.315 Y151.671 E11.5136
G1 X47.171 Y150.744 E11.5448
G1 X47.105 Y149.821 E11.57558
G1 X47.085 Y149.116 E11.59903
G1 X47.081 Y148.804 E11.60941
G1 X47.081 Y136.422 E12.02124
G1 X47.044 Y133.813 E12.10802
G1 X46.937 Y131.291 E12.19198
G1 X46.76 Y128.797 E12.27514
G1 X46.513 Y126.302 E12.35853
G1 X46.193 Y123.806 E12.44223
G1 X45.653 Y120.448 E12.55535
G1 X45.543 Y119.516 E12.58656
G1 X45.516 Y118.947 E12.60551
G1 X45.503 Y118.368 E12.62477
G1 X45.5 Y118.121 E12.63299
G1 X45.5 Y98.274 E13.2931
G1 X45.501 Y98.116 E13.29836
G1 X45.511 Y97.418 E13.32158
G1 X45.565 Y96.482 E13.35276
G1 X45.641 Y95.882 E13.37287
G1 X45.735 Y95.279 E13.39317
G1 X45.762 Y95.113 E13.39877
G1 X46.006 Y93.692 E13.44672
G1 X46.361 Y91.197 E13.53054
G1 X46.644 Y88.715 E13.61363
G1 X46.858 Y86.2 E13.69758
G1 X47 Y83.685 E13.78136
G1 X47.073 Y81.17 E13.86504
G1 X47.082 Y79.822 E13.90988
G1 X47.082 Y71.179 E14.19735
G1 X47.083 Y71.016 E14.20277
G1 X47.093 Y70.341 E14.22522
G1 X47.147 Y69.405 E14.25641
G1 X47.28 Y68.476 E14.28762
G1 X47.493 Y67.563 E14.3188
G1 X47.782 Y66.671 E14.34999
G1 X48.146 Y65.806 E14.3812
G1 X48.582 Y64.976 E14.41238
G1 X49.087 Y64.186 E14.44357
G1 X49.719 Y63.37 E14.4779
G1 X49.984 Y63.059 E14.49149
G1 X50.622 Y62.371 E14.5227
G1 X51.317 Y61.741 E14.55389
G0 F6000 X51.599 Y62.027
G1 F1200 X52.505 Y61.355 E14.59141
G1 X52.65 Y61.259 E14.5972
G1 X53.439 Y60.784 E14.62783
G1 X54.267 Y60.38 E14.65847
G1 X55.126 Y60.049 E14.68909
G1 X56.01 Y59.794 E14.71969
G1 X56.914 Y59.617 E14.75033
G1 X57.829 Y59.518 E14.78094
G1 X58.317 Y59.499 E14.79718
G1 X59.177 Y59.484 E14.82579
G1 X59.362 Y59.482 E14.83194
G1 X127.14 Y59.482 E17.08625
G1 X161.791 Y59.481 E18.23875
G1 X161.943 Y59.482 E18.2438
G1 X162.639 Y59.492 E18.26695
G1 X163.558 Y59.545 E18.29757
G1 X164.469 Y59.678 E18.32819
G1 X165.366 Y59.889 E18.35884
G1 X166.24 Y60.178 E18.38946
G1 X167.086 Y60.541 E18.42008
G1 X167.897 Y60.976 E18.45068
G1 X168.668 Y61.48 E18.48132
G1 X169.28 Y61.954 E18.50707
G1 X169.601 Y62.222 E18.52098
G1 X170.282 Y62.842 E18.55161
G1 X170.906 Y63.519 E18.58223
G1 X171.637 Y64.493 E18.62273
G1 X171.732 Y64.636 E18.62844
G1 X172.208 Y65.425 E18.65909
G1 X172.613 Y66.251 E18.68969
G1 X172.946 Y67.11 E18.72033
G1 X173.202 Y67.994 E18.75094
G1 X173.381 Y68.897 E18.78156
G1 X173.481 Y69.812 E18.81217
G1 X173.501 Y70.312 E18.82882
G1 X173.516 Y71.15 E18.85669
G1 X173.518 Y71.34 E18.86301
G1 X173.518 Y148.765 E21.43818
G1 X173.517 Y148.912 E21.44307
G1 X173.507 Y149.634 E21.46709
G1 X173.454 Y150.553 E21.4977
G1 X173.322 Y151.464 E21.52832
G1 X173.111 Y152.36 E21.55893
G1 X172.823 Y153.235 E21.58957
G1 X172.461 Y154.081 E21.62018
G1 X172.026 Y154.893 E21.65082
G1 X171.58 Y155.582 E21.67812
G1 X171.457 Y155.757 E21.68523
G1 X170.896 Y156.487 E21.71585
G1 X170.273 Y157.165 E21.74648
G1 X169.691 Y157.704 E21.77286
G1 X169.415 Y157.941 E21.78496
G1 X168.691 Y158.51 E21.81559
G1 X167.92 Y159.014 E21.84622
G1 X167.109 Y159.449 E21.87683
G1 X166.263 Y159.812 E21.90745
G1 X165.389 Y160.1 E21.93806
G1 X164.493 Y160.312 E21.96868
G1 X163.581 Y160.445 E21.99934
G1 X162.814 Y160.495 E22.0249
G1 X162.119 Y160.515 E22.04803
G1 X161.814 Y160.519 E22.05817
G1 X127.141 Y160.519 E23.2114
G1 X59.206 Y160.518 E25.47093
G1 X59.053 Y160.517 E25.47602
G1 X58.36 Y160.507 E25.49907
G1 X57.441 Y160.454 E25.52969
G1 X56.53 Y160.321 E25.56031
G1 X55.634 Y160.109 E25.59093
G1 X54.76 Y159.821 E25.62154
G1 X53.913 Y159.458 E25.65219
G1 X53.102 Y159.023 E25.6828
G1 X52.418 Y158.58 E25.7099
G1 X52.243 Y158.457 E25.71701
G1 X51.513 Y157.896 E25.74764
G1 X50.835 Y157.273 E25.77826
G1 X50.296 Y156.691 E25.80464
G1 X50.059 Y156.415 E25.81674
G1 X49.49 Y155.691 E25.84737
G1 X48.986 Y154.92 E25.87801
G1 X48.551 Y154.109 E25.90862
G1 X48.188 Y153.263 E25.93924
G1 X47.9 Y152.389 E25.96984
G1 X47.688 Y151.493 E26.00047
G1 X47.555 Y150.581 E26.03112
G1 X47.505 Y149.81 E26.05682
G1 X47.485 Y149.105 E26.08028
G1 X47.481 Y148.804 E26.09029
G1 X47.481 Y136.416 E26.50232
G1 X47.444 Y133.791 E26.58963
G1 X47.337 Y131.282 E26.67316
G1 X47.159 Y128.762 E26.75718
G1 X46.91 Y126.248 E26.84121
G1 X46.59 Y123.752 E26.9249
G1 X46.048 Y120.384 E27.03836
G1 X45.941 Y119.47 E27.06897
G1 X45.916 Y118.938 E27.08669
G1 X45.903 Y118.359 E27.10595
G1 X45.9 Y118.121 E27.11387
G1 X45.9 Y98.274 E27.77398
G1 X45.901 Y98.122 E27.77903
G1 X45.911 Y97.424 E27.80225
G1 X45.964 Y96.505 E27.83287
G1 X46.036 Y95.943 E27.85171
G1 X46.13 Y95.34 E27.87201
G1 X46.157 Y95.18 E27.87741
G1 X46.398 Y93.774 E27.92486
G1 X46.756 Y91.266 E28.00912
G1 X47.041 Y88.758 E28.09307
G1 X47.257 Y86.22 E28.17779
G1 X47.399 Y83.72 E28.26107
G1 X47.473 Y81.137 E28.34702
G1 X47.482 Y79.825 E28.39066
G1 X47.482 Y71.179 E28.67823
G1 X47.483 Y71.022 E28.68345
G1 X47.493 Y70.347 E28.7059
G1 X47.547 Y69.428 E28.73652
G1 X47.68 Y68.517 E28.76714
G1 X47.892 Y67.621 E28.79776
G1 X48.18 Y66.747 E28.82837
G1 X48.544 Y65.901 E28.859
G1 X48.979 Y65.09 E28.88961
G1 X49.483 Y64.319 E28.92025
G1 X50.024 Y63.629 E28.94941
G1 X50.289 Y63.318 E28.963
G1 X50.916 Y62.644 E28.99362
G1 X51.599 Y62.027 E29.02423
G0 F6000 X51.88 Y62.313
G1 F1200 X52.726 Y61.688 E29.05922
G1 X52.871 Y61.592 E29.065
G1 X53.646 Y61.127 E29.09506
G1 X54.458 Y60.733 E29.12508
G1 X55.302 Y60.412 E29.15511
G1 X56.171 Y60.167 E29.18514
G1 X57.059 Y60 E29.2152
G1 X58.324 Y59.899 E29.2574
G1 X59.184 Y59.884 E29.28601
G1 X59.362 Y59.882 E29.29193
G1 X127.14 Y59.882 E31.54624
G1 X161.791 Y59.881 E32.69873
G1 X161.938 Y59.882 E32.70362
G1 X162.634 Y59.892 E32.72678
G1 X163.535 Y59.945 E32.75679
G1 X164.428 Y60.077 E32.78682
G1 X165.307 Y60.288 E32.81688
G1 X166.163 Y60.576 E32.84692
G1 X166.99 Y60.939 E32.87696
G1 X167.782 Y61.373 E32.907
G1 X168.532 Y61.875 E32.93702
G1 X169.024 Y62.261 E32.95782
G1 X169.345 Y62.529 E32.97173
G1 X170.012 Y63.138 E33.00177
G1 X170.623 Y63.804 E33.03183
G1 X171.304 Y64.715 E33.06966
G1 X171.399 Y64.858 E33.07537
G1 X171.865 Y65.631 E33.10539
G1 X172.261 Y66.443 E33.13544
G1 X172.583 Y67.287 E33.16548
G1 X172.829 Y68.156 E33.19552
G1 X172.998 Y69.043 E33.22555
G1 X173.101 Y70.319 E33.26813
G1 X173.116 Y71.157 E33.29601
G1 X173.118 Y71.34 E33.30209
G1 X173.118 Y148.765 E35.87726
G1 X173.117 Y148.906 E35.88195
G1 X173.107 Y149.628 E35.90596
G1 X173.055 Y150.53 E35.93602
G1 X172.923 Y151.423 E35.96604
G1 X172.712 Y152.301 E35.99607
G1 X172.425 Y153.158 E36.02613
G1 X172.063 Y153.985 E36.05616
G1 X171.629 Y154.777 E36.0862
G1 X171.253 Y155.352 E36.10905
G1 X171.13 Y155.527 E36.11616
G1 X170.578 Y156.242 E36.14621
G1 X169.966 Y156.906 E36.17624
G1 X169.43 Y157.4 E36.20048
G1 X169.154 Y157.637 E36.21258
G1 X168.443 Y158.195 E36.24264
G1 X167.686 Y158.687 E36.27267
G1 X166.889 Y159.111 E36.3027
G1 X166.057 Y159.462 E36.33273
G1 X165.197 Y159.738 E36.36277
G1 X164.316 Y159.938 E36.39282
G1 X163.421 Y160.058 E36.42286
G1 X162.802 Y160.095 E36.44348
G1 X162.107 Y160.115 E36.46661
G1 X161.814 Y160.119 E36.47635
G1 X127.141 Y160.119 E37.62958
G1 X59.206 Y160.118 E39.88911
G1 X59.059 Y160.117 E39.894
G1 X58.366 Y160.107 E39.91705
G1 X57.464 Y160.054 E39.9471
G1 X56.571 Y159.921 E39.97713
G1 X55.693 Y159.71 E40.00716
G1 X54.837 Y159.423 E40.03719
G1 X54.01 Y159.06 E40.06723
G1 X53.218 Y158.626 E40.09727
G1 X52.648 Y158.253 E40.11993
G1 X52.473 Y158.13 E40.12704
G1 X51.758 Y157.578 E40.15708
G1 X51.094 Y156.966 E40.18712
G1 X50.6 Y156.43 E40.21136
G1 X50.363 Y156.154 E40.22346
G1 X49.805 Y155.443 E40.25352
G1 X49.313 Y154.686 E40.28355
G1 X48.889 Y153.889 E40.31358
G1 X48.538 Y153.057 E40.34361
G1 X48.262 Y152.197 E40.37365
G1 X48.062 Y151.316 E40.4037
G1 X47.942 Y150.421 E40.43373
G1 X47.905 Y149.798 E40.45449
G1 X47.885 Y149.093 E40.47795
G1 X47.881 Y148.804 E40.48756
G1 X47.881 Y136.41 E40.89979
G1 X47.844 Y133.804 E40.98647
G1 X47.735 Y131.238 E41.0719
G1 X47.557 Y128.731 E41.15549
G1 X47.306 Y126.19 E41.24042
G1 X46.987 Y123.703 E41.32381
G1 X46.443 Y120.321 E41.43774
G1 X46.339 Y119.423 E41.46781
G1 X46.316 Y118.929 E41.48426
G1 X46.303 Y118.35 E41.50352
G1 X46.3 Y118.121 E41.51114
G1 X46.3 Y98.274 E42.17125
G1 X46.301 Y98.128 E42.17611
G1 X46.311 Y97.43 E42.19933
G1 X46.364 Y96.528 E42.22938
G1 X46.432 Y96.005 E42.24692
G1 X46.526 Y95.402 E42.26722
G1 X46.551 Y95.248 E42.27241
G1 X46.794 Y93.832 E42.32019
G1 X47.151 Y91.327 E42.40435
G1 X47.442 Y88.77 E42.48995
G1 X47.654 Y86.278 E42.57313
G1 X47.799 Y83.717 E42.65844
G1 X47.873 Y81.152 E42.74379
G1 X47.882 Y79.828 E42.78783
G1 X47.882 Y71.179 E43.0755
G1 X47.883 Y71.028 E43.08052
G1 X47.893 Y70.353 E43.10297
G1 X47.946 Y69.451 E43.13302
G1 X48.079 Y68.558 E43.16305
G1 X48.291 Y67.68 E43.19309
G1 X48.579 Y66.824 E43.22313
G1 X48.942 Y65.997 E43.25317
G1 X49.376 Y65.205 E43.28321
G1 X49.879 Y64.455 E43.31325
G1 X50.328 Y63.889 E43.33728
G1 X50.593 Y63.578 E43.35087
G1 X51.209 Y62.917 E43.38092
G1 X51.88 Y62.313 E43.41094
G1 F1500 E36.91094
G0 F6000 X56.996 Y97.353
G1 F1500 E43.41094
G1 F1200 X57.082 Y97.353 E43.41381
G1 X57.081 Y118.897 E44.13036
G1 X56.996 Y118.897 E44.13319
G1 X56.7 Y118.601 E44.14711
G1 X56.7 Y97.649 E44.84398
G1 X56.996 Y97.353 E44.8579
G1 F1500 E38.3579
;MESH:Case.stl
G0 F6000 X63.79 Y120.44
G0 X63.39 Y118.609
G0 X65.309 Y119.688
G0 X65.781 Y120.078
G0 X66.142 Y120.573
G0 X66.365 Y121.144
G0 X66.444 Y121.75
G0 X66.381 Y122.24
G0 X65.612 Y124.29
;TYPE:WALL-INNER
G1 F1500 E44.8579
G1 F1200 X66.193 Y123.809 E44.88299
G1 X66.638 Y123.199 E44.9081
G1 X66.912 Y122.497 E44.93317
G1 X67.008 Y121.75 E44.95822
G1 X66.912 Y121.003 E44.98326
G1 X66.638 Y120.301 E45.00833
G1 X66.193 Y119.691 E45.03344
G1 X65.612 Y119.21 E45.05853
G1 X64.928 Y118.89 E45.08365
G1 X64.191 Y118.749 E45.1086
G1 X63.608 Y118.783 E45.12803
G1 X63.428 Y118.797 E45.13403
G1 X62.718 Y119.028 E45.15887
G1 X62.082 Y119.432 E45.18393
G1 X61.567 Y119.981 E45.20896
G1 X61.202 Y120.645 E45.23416
G1 X61.016 Y121.374 E45.25919
G1 X61.016 Y122.121 E45.28403
G1 X61.058 Y122.293 E45.28992
G1 X61.203 Y122.856 E45.30926
G1 X61.566 Y123.518 E45.33437
G1 X62.083 Y124.068 E45.35947
G1 X62.718 Y124.472 E45.38451
G1 X63.437 Y124.705 E45.40965
G1 X64.14 Y124.747 E45.43307
G1 X64.191 Y124.751 E45.43477
G1 X64.928 Y124.61 E45.45973
G1 X65.612 Y124.29 E45.48484
G0 F6000 X65.396 Y123.949
G1 F1200 X65.899 Y123.533 E45.50655
G1 X66.284 Y123.005 E45.52829
G1 X66.522 Y122.397 E45.55
G1 X66.605 Y121.75 E45.5717
G1 X66.522 Y121.103 E45.5934
G1 X66.284 Y120.495 E45.61511
G1 X65.899 Y119.967 E45.63685
G1 X65.396 Y119.551 E45.65856
G1 X64.804 Y119.273 E45.68031
G1 X64.165 Y119.151 E45.70195
G1 X63.635 Y119.182 E45.7196
G1 X63.507 Y119.192 E45.72388
G1 X62.89 Y119.393 E45.74546
G1 X62.339 Y119.743 E45.76717
G1 X61.893 Y120.218 E45.78884
G1 X61.577 Y120.793 E45.81066
G1 X61.416 Y121.424 E45.83232
G1 X61.416 Y122.073 E45.85391
G1 X61.446 Y122.196 E45.85812
G1 X61.578 Y122.708 E45.8757
G1 X61.892 Y123.281 E45.89744
G1 X62.34 Y123.757 E45.91918
G1 X62.89 Y124.107 E45.94086
G1 X63.512 Y124.309 E45.96261
G1 X64.165 Y124.349 E45.98437
G1 X64.804 Y124.227 E46.00601
G1 X65.396 Y123.949 E46.02776
G0 F6000 X65.18 Y123.609
;TYPE:WALL-OUTER
G1 F1200 X65.605 Y123.257 E46.04612
G1 X65.93 Y122.811 E46.06447
G1 X66.132 Y122.297 E46.08284
G1 X66.202 Y121.75 E46.10118
G1 X66.132 Y121.203 E46.11952
G1 X65.93 Y120.689 E46.13789
G1 X65.605 Y120.243 E46.15625
G1 X65.18 Y119.891 E46.1746
G1 X64.68 Y119.656 E46.19298
G1 X64.139 Y119.553 E46.21129
G1 X63.662 Y119.581 E46.22718
G1 X63.586 Y119.587 E46.22972
G1 X63.062 Y119.758 E46.24805
G1 X62.596 Y120.054 E46.26642
G1 X62.219 Y120.455 E46.28472
G1 X61.952 Y120.941 E46.30316
G1 X61.816 Y121.474 E46.32146
G1 X61.816 Y122.025 E46.33979
G1 X61.834 Y122.099 E46.34232
G1 X61.953 Y122.56 E46.35815
G1 X62.218 Y123.044 E46.37651
G1 X62.597 Y123.446 E46.39488
G1 X63.062 Y123.742 E46.41322
G1 X63.587 Y123.913 E46.43158
G1 X64.139 Y123.947 E46.44998
G1 X64.68 Y123.844 E46.46829
G1 X65.18 Y123.609 E46.48667
G0 F6000 X65.415 Y123.98
G1 F1500 E39.98667
G0 F6000 X66.333 Y123.941
G0 X64.969 Y122.66
G0 X74.665 Y123.941
G0 X72.81 Y123.941
G0 X73 Y131.2
;TYPE:WALL-INNER
G1 F1500 E46.48667
G1 F1200 X147 Y131.2 E48.94792
G1 X147 Y104.2 E49.84594
G1 X73 Y104.2 E52.30719
