;FLAVOR:Marlin
;TIME:20822
;Filament used: 14.2535m
;Layer height: 0.2
;MINX:46.581
;MINY:64.5
;MINZ:0.2
;MAXX:173.419
;MAXY:154.919
;MAXZ:24.4
;Generated with Cura_SteamEngine 4.4.1
M140 S60
M105
M190 S60
M104 S200
M105
M109 S200
M82 ;absolute extrusion mode
M201 X500.00 Y500.00 Z100.00 E5000.00 ;Setup machine max acceleration
M203 X500.00 Y500.00 Z10.00 E50.00 ;Setup machine max feedrate
M204 P500.00 R1000.00 T500.00 ;Setup Print/Retract/Travel acceleration
M205 X8.00 Y8.00 Z0.40 E5.00 ;Setup Jerk
M220 S100 ;Reset Feedrate
M221 S100 ;Reset Flowrate

G28 ;Home

G92 E0 ;Reset Extruder
G1 Z2.0 F3000 ;Move Z Axis up
G1 X10.1 Y20 Z0.28 F5000.0 ;Move to start position
G1 X10.1 Y200.0 Z0.28 F1500.0 E15 ;Draw the first line
G1 X10.4 Y200.0 Z0.28 F5000.0 ;Move to side a little
G1 X10.4 Y20 Z0.28 F1500.0 E30 ;Draw the second line
G92 E0 ;Reset Extruder
G1 Z2.0 F3000 ;Move Z Axis up

G92 E0
G92 E0
G1 F1500 E-6.5
;LAYER_COUNT:122
;LAYER:0
M107
G0 F6000 X51.216 Y66.546 Z0.2
;TYPE:SKIRT
G1 F1500 E0
G1 F1200 X52.003 Y66.035 E0.03121
G1 X52.83 Y65.594 E0.06238
G1 X53.692 Y65.224 E0.09358
G1 X54.583 Y64.929 E0.1248
G1 X55.495 Y64.712 E0.15598
G1 X56.422 Y64.572 E0.18716
G1 X57.274 Y64.515 E0.21556
G1 X57.586 Y64.506 E0.22594
G1 X57.903 Y64.501 E0.23649
G1 X161.711 Y64.5 E3.68916
G1 X161.869 Y64.501 E3.69441
G1 X162.567 Y64.511 E3.71763
G1 X163.503 Y64.565 E3.74881
G1 X164.431 Y64.697 E3.77999
G1 X165.345 Y64.909 E3.8112
G1 X166.237 Y65.198 E3.84238
G1 X167.102 Y65.561 E3.87358
G1 X167.932 Y65.997 E3.90477
G1 X168.723 Y66.502 E3.93598
G1 X169.467 Y67.073 E3.96717
G1 X170.16 Y67.705 E3.99837
G1 X170.797 Y68.393 E4.02955
G1 X171.372 Y69.134 E4.06075
G1 X171.883 Y69.92 E4.09193
G1 X172.325 Y70.748 E4.12315
G1 X172.694 Y71.61 E4.15433
G1 X172.989 Y72.5 E4.18552
G1 X173.207 Y73.412 E4.21671
G1 X173.347 Y74.34 E4.24792
G1 X173.405 Y75.201 E4.27662
G1 X173.414 Y75.521 E4.28727
G1 X173.418 Y75.83 E4.29755
G1 X173.418 Y120.384 E5.77942
G1 X173.419 Y142.764 E6.52378
G1 X173.418 Y142.906 E6.52851
G1 X173.409 Y143.602 E6.55166
G1 X173.357 Y144.539 E6.58287
G1 X173.225 Y145.467 E6.61405
G1 X173.015 Y146.381 E6.64524
G1 X172.728 Y147.274 E6.67643
G1 X172.365 Y148.139 E6.70764
G1 X171.813 Y149.169 E6.7465
G1 X171.728 Y149.309 E6.75195
G1 X171.207 Y150.089 E6.78315
G1 X170.566 Y150.886 E6.81717
G1 X170.383 Y151.093 E6.82636
G1 X169.733 Y151.768 E6.85752
G1 X169.027 Y152.386 E6.88873
G1 X168.244 Y152.96 E6.92102
G1 X168.1 Y153.056 E6.92678
G1 X167.298 Y153.542 E6.95797
G1 X166.458 Y153.958 E6.98914
G1 X165.585 Y154.302 E7.02035
G1 X164.686 Y154.57 E7.05155
G1 X163.768 Y154.76 E7.08273
G1 X162.836 Y154.871 E7.11395
G1 X162.19 Y154.901 E7.13546
G1 X161.33 Y154.916 E7.16407
G1 X161.138 Y154.918 E7.17046
G1 X93.36 Y154.918 E9.42476
G1 X58.709 Y154.919 E10.57726
G1 X58.551 Y154.918 E10.58251
G1 X57.855 Y154.908 E10.60566
G1 X56.919 Y154.854 E10.63685
G1 X55.99 Y154.721 E10.66806
G1 X55.077 Y154.51 E10.69923
G1 X54.184 Y154.221 E10.73045
G1 X53.32 Y153.858 E10.76162
G1 X52.489 Y153.422 E10.79283
G1 X51.699 Y152.916 E10.82403
G1 X50.963 Y152.353 E10.85485
G1 X50.642 Y152.085 E10.86876
G1 X49.949 Y151.454 E10.89993
G1 X49.311 Y150.766 E10.93114
G1 X48.53 Y149.728 E10.97435
G1 X48.435 Y149.585 E10.98006
G1 X47.949 Y148.782 E11.01127
G1 X47.534 Y147.941 E11.04247
G1 X47.192 Y147.068 E11.07365
G1 X46.926 Y146.169 E11.10483
G1 X46.737 Y145.25 E11.13604
G1 X46.628 Y144.319 E11.16722
G1 X46.599 Y143.688 E11.18823
G1 X46.584 Y142.82 E11.2171
G1 X46.582 Y142.63 E11.22342
G1 X46.581 Y76.2 E13.43289
G1 X46.582 Y76.041 E13.43818
G1 X46.592 Y75.351 E13.46113
G1 X46.646 Y74.414 E13.49235
G1 X46.779 Y73.486 E13.52353
G1 X46.991 Y72.572 E13.55473
G1 X47.279 Y71.68 E13.58591
G1 X47.643 Y70.815 E13.61712
G1 X48.079 Y69.985 E13.64831
G1 X48.584 Y69.195 E13.67949
G1 X49.155 Y68.451 E13.71069
G1 X49.787 Y67.758 E13.74188
G1 X50.476 Y67.121 E13.77309
G1 X51.216 Y66.546 E13.80426
G0 F6000 X51.6 Y66.765
G1 F1200 X52.382 Y66.278 E13.8349
G1 X53.203 Y65.861 E13.86553
G1 X54.056 Y65.517 E13.89612
G1 X54.937 Y65.248 E13.92676
G1 X55.837 Y65.056 E13.95736
G1 X56.751 Y64.943 E13.98799
G1 X57.285 Y64.914 E14.00578
G1 X57.597 Y64.905 E14.01616
G1 X57.903 Y64.901 E14.02634
G1 X161.711 Y64.9 E17.47901
G1 X161.863 Y64.901 E17.48407
G1 X162.561 Y64.911 E17.50728
G1 X163.48 Y64.964 E17.5379
G1 X164.391 Y65.097 E17.56852
G1 X165.287 Y65.308 E17.59914
G1 X166.161 Y65.596 E17.62974
G1 X167.008 Y65.959 E17.66039
G1 X167.819 Y66.394 E17.691
G1 X168.589 Y66.898 E17.72161
G1 X169.313 Y67.467 E17.75224
G1 X169.985 Y68.097 E17.78288
G1 X170.6 Y68.782 E17.81349
G1 X171.153 Y69.518 E17.84411
G1 X171.64 Y70.299 E17.87473
G1 X172.057 Y71.12 E17.90535
G1 X172.402 Y71.974 E17.93599
G1 X172.671 Y72.854 E17.96659
G1 X172.863 Y73.755 E17.99723
G1 X172.976 Y74.668 E18.02783
G1 X173.005 Y75.212 E18.04595
G1 X173.014 Y75.532 E18.0566
G1 X173.018 Y75.83 E18.06651
G1 X173.018 Y120.384 E19.54838
G1 X173.019 Y142.764 E20.29274
G1 X173.018 Y142.901 E20.2973
G1 X173.009 Y143.597 E20.32045
G1 X172.957 Y144.516 E20.35107
G1 X172.826 Y145.427 E20.38168
G1 X172.616 Y146.324 E20.41232
G1 X172.329 Y147.199 E20.44295
G1 X171.967 Y148.045 E20.47355
G1 X171.471 Y148.961 E20.5082
G1 X171.386 Y149.101 E20.51365
G1 X170.874 Y149.867 E20.54429
G1 X170.267 Y150.621 E20.57649
G1 X170.084 Y150.828 E20.58568
G1 X169.444 Y151.49 E20.6163
G1 X168.75 Y152.095 E20.64692
G1 X168.022 Y152.627 E20.67691
G1 X167.878 Y152.723 E20.68267
G1 X167.09 Y153.2 E20.71331
G1 X166.264 Y153.606 E20.74392
G1 X165.406 Y153.94 E20.77454
G1 X164.523 Y154.198 E20.80514
G1 X163.62 Y154.378 E20.83576
G1 X162.705 Y154.479 E20.86638
G1 X162.183 Y154.501 E20.88376
G1 X161.323 Y154.516 E20.91237
G1 X161.138 Y154.518 E20.91852
G1 X93.36 Y154.518 E23.17283
G1 X58.709 Y154.519 E24.32532
G1 X58.557 Y154.518 E24.33038
G1 X57.861 Y154.508 E24.35353
G1 X56.942 Y154.455 E24.38415
G1 X56.031 Y154.322 E24.41477
G1 X55.134 Y154.111 E24.44542
G1 X54.26 Y153.822 E24.47603
G1 X53.414 Y153.459 E24.50665
G1 X52.603 Y153.024 E24.53726
G1 X51.832 Y152.52 E24.5679
G1 X51.22 Y152.046 E24.59364
G1 X50.899 Y151.778 E24.60755
G1 X50.218 Y151.158 E24.63818
G1 X49.594 Y150.481 E24.66881
G1 X48.863 Y149.507 E24.70931
G1 X48.768 Y149.364 E24.71502
G1 X48.292 Y148.575 E24.74567
G1 X47.887 Y147.749 E24.77627
G1 X47.554 Y146.89 E24.80691
G1 X47.298 Y146.006 E24.83752
G1 X47.119 Y145.103 E24.86814
G1 X47.019 Y144.188 E24.89875
G1 X46.999 Y143.681 E24.91563
G1 X46.984 Y142.813 E24.9445
G1 X46.982 Y142.63 E24.95059
G1 X46.981 Y76.2 E27.16006
G1 X46.982 Y76.046 E27.16518
G1 X46.992 Y75.356 E27.18813
G1 X47.045 Y74.437 E27.21875
G1 X47.178 Y73.526 E27.24937
G1 X47.39 Y72.63 E27.28
G1 X47.678 Y71.756 E27.3106
G1 X48.041 Y70.91 E27.34122
G1 X48.476 Y70.099 E27.37183
G1 X48.98 Y69.328 E27.40247
G1 X49.549 Y68.604 E27.43309
G1 X50.179 Y67.932 E27.46373
G1 X50.864 Y67.318 E27.49433
G1 X51.6 Y66.765 E27.52495
G0 F6000 X51.984 Y66.99
G1 F1200 X52.759 Y66.527 E27.55497
G1 X53.573 Y66.135 E27.58502
G1 X54.418 Y65.816 E27.61506
G1 X55.288 Y65.573 E27.64511
G1 X56.176 Y65.409 E27.67514
G1 X57.297 Y65.314 E27.71256
G1 X57.609 Y65.305 E27.72294
G1 X57.903 Y65.301 E27.73272
G1 X161.711 Y65.3 E31.18539
G1 X161.857 Y65.301 E31.19024
G1 X162.555 Y65.311 E31.21346
G1 X163.457 Y65.364 E31.24351
G1 X164.35 Y65.496 E31.27354
G1 X165.228 Y65.707 E31.30357
G1 X166.084 Y65.995 E31.33361
G1 X166.911 Y66.357 E31.36364
G1 X167.703 Y66.792 E31.39369
G1 X168.454 Y67.294 E31.42374
G1 X169.157 Y67.861 E31.45378
G1 X169.807 Y68.488 E31.48381
G1 X170.399 Y69.17 E31.51385
G1 X170.929 Y69.901 E31.54388
G1 X171.391 Y70.677 E31.57392
G1 X171.784 Y71.49 E31.60395
G1 X172.102 Y72.335 E31.63398
G1 X172.345 Y73.205 E31.66403
G1 X172.51 Y74.093 E31.69407
G1 X172.605 Y75.223 E31.73178
G1 X172.614 Y75.543 E31.74243
G1 X172.618 Y75.83 E31.75198
G1 X172.618 Y120.384 E33.23385
G1 X172.619 Y142.764 E33.97821
G1 X172.618 Y142.896 E33.9826
G1 X172.609 Y143.592 E34.00575
G1 X172.558 Y144.494 E34.0358
G1 X172.426 Y145.387 E34.06583
G1 X172.217 Y146.265 E34.09584
G1 X171.93 Y147.122 E34.1259
G1 X171.569 Y147.95 E34.15595
G1 X171.129 Y148.754 E34.18643
G1 X171.044 Y148.894 E34.19188
G1 X170.541 Y149.644 E34.22191
G1 X169.967 Y150.356 E34.25233
G1 X169.784 Y150.563 E34.26152
G1 X169.156 Y151.212 E34.29156
G1 X168.474 Y151.804 E34.3216
G1 X167.8 Y152.294 E34.34931
G1 X167.656 Y152.39 E34.35507
G1 X166.883 Y152.857 E34.38511
G1 X166.072 Y153.254 E34.41514
G1 X165.229 Y153.578 E34.44518
G1 X164.36 Y153.826 E34.47523
G1 X163.473 Y153.996 E34.50527
G1 X162.176 Y154.101 E34.54855
G1 X161.316 Y154.116 E34.57716
G1 X161.138 Y154.118 E34.58308
G1 X93.36 Y154.118 E36.83738
G1 X58.709 Y154.119 E37.98988
G1 X58.562 Y154.118 E37.99477
G1 X57.866 Y154.108 E38.01792
G1 X56.965 Y154.055 E38.04794
G1 X56.072 Y153.923 E38.07797
G1 X55.193 Y153.712 E38.10803
G1 X54.337 Y153.424 E38.13807
G1 X53.51 Y153.061 E38.16811
G1 X52.718 Y152.627 E38.19815
G1 X51.968 Y152.125 E38.22817
G1 X51.476 Y151.739 E38.24896
G1 X51.155 Y151.471 E38.26287
G1 X50.488 Y150.862 E38.29291
G1 X49.877 Y150.196 E38.32297
G1 X49.196 Y149.285 E38.3608
G1 X49.101 Y149.142 E38.36651
G1 X48.635 Y148.369 E38.39654
G1 X48.239 Y147.557 E38.42658
G1 X47.917 Y146.713 E38.45663
G1 X47.671 Y145.844 E38.48667
G1 X47.502 Y144.957 E38.5167
G1 X47.399 Y143.674 E38.55951
G1 X47.384 Y142.806 E38.58838
G1 X47.382 Y142.63 E38.59424
G1 X47.381 Y76.2 E40.80371
G1 X47.382 Y76.052 E40.80863
G1 X47.392 Y75.362 E40.83158
G1 X47.445 Y74.461 E40.8616
G1 X47.578 Y73.567 E40.89166
G1 X47.789 Y72.689 E40.9217
G1 X48.077 Y71.833 E40.95174
G1 X48.439 Y71.006 E40.98176
G1 X48.873 Y70.214 E41.0118
G1 X49.376 Y69.464 E41.04184
G1 X49.943 Y68.761 E41.07188
G1 X50.57 Y68.111 E41.10191
G1 X51.252 Y67.519 E41.13195
G1 X51.984 Y66.99 E41.16199
G1 F1500 E34.66199
;MESH:Lid.stl
G0 F6000 X58.001 Y74.835
G0 X58.001 Y75.92
G0 X58.764 Y142.737
G0 X93.36 Y142.918
;TYPE:WALL-INNER
G1 F1500 E41.16199
G1 F1200 X58.582 Y142.919 E42.31871
G1 X58.581 Y76.699 E44.5212
G1 X58.581 Y76.5 E44.52781
G1 X58.78 Y76.5 E44.5321
G1 X161.418 Y76.5 E47.94585
G1 X161.418 Y120.38 E49.40531
G1 X161.419 Y142.719 E50.1483
G1 X161.419 Y142.918 E50.15492
G1 X161.22 Y142.918 E50.1592
G1 X93.36 Y142.918 E52.41624
G0 F6000 X93.36 Y143.318
G1 F1200 X58.234 Y143.319 E53.58453
G1 X58.182 Y143.277 E53.58676
G1 X58.181 Y76.299 E55.81445
G1 X58.181 Y76.1 E55.82107
G1 X58.38 Y76.1 E55.82535
G1 X161.818 Y76.1 E59.26572
G1 X161.818 Y120.38 E60.73848
G1 X161.819 Y143.1 E61.49415
G1 X161.819 Y143.266 E61.49967
G1 X161.777 Y143.318 E61.50189
G1 X161.611 Y143.318 E61.50741
G1 X93.36 Y143.318 E63.77745
G0 F6000 X93.36 Y143.718
;TYPE:WALL-OUTER
G1 F1200 X58.084 Y143.719 E64.95073
G1 X58.047 Y143.682 E64.95247
G1 X57.817 Y143.497 E64.96229
G1 X57.782 Y143.442 E64.96446
G1 X57.781 Y75.7 E67.21757
G1 X162.218 Y75.7 E70.69116
G1 X162.218 Y120.38 E72.17722
G1 X162.219 Y143.416 E72.9434
G1 X162.182 Y143.453 E72.94514
G1 X161.997 Y143.683 E72.95496
G1 X161.942 Y143.718 E72.95713
G1 X93.36 Y143.718 E75.23817
G0 F6000 X93.36 Y143.278
G0 X93.36 Y142.528
;TYPE:SKIN
G1 F1200 X58.972 Y142.529 E76.38192
G1 X58.971 Y76.89 E78.56508
G1 X161.028 Y76.89 E81.95951
G1 X161.028 Y120.38 E83.406
G1 X161.029 Y142.528 E84.14264
G1 X93.36 Y142.528 E86.39332
G1 F1500 E79.89332
G0 F6000 X93.36 Y142.808
G0 X59.211 Y142.809
G0 X59.211 Y142.367
G1 F1500 E86.39332
G1 F1200 X59.131 Y142.286 E86.39711
G0 F6000 X59.131 Y141.721
G1 F1200 X59.777 Y142.367 E86.42749
G0 F6000 X60.343 Y142.367
G1 F1200 X59.131 Y141.155 E86.4845
G0 F6000 X59.131 Y140.589
G1 F1200 X60.908 Y142.367 E86.56811
G0 F6000 X61.474 Y142.367
G1 F1200 X59.131 Y140.024 E86.67832
G0 F6000 X59.131 Y139.458
G1 F1200 X62.04 Y142.367 E86.81515
G0 F6000 X62.605 Y142.367
G1 F1200 X59.131 Y138.892 E86.97858
G0 F6000 X59.131 Y138.327
G1 F1200 X63.171 Y142.367 E87.16861
G0 F6000 X63.737 Y142.367
G1 F1200 X59.131 Y137.761 E87.38526
G0 F6000 X59.131 Y137.195
G1 F1200 X64.302 Y142.367 E87.62851
G0 F6000 X64.868 Y142.367
G1 F1200 X59.131 Y136.63 E87.89836
G0 F6000 X59.131 Y136.064
G1 F1200 X65.434 Y142.367 E88.19484
G0 F6000 X65.999 Y142.367
G1 F1200 X59.131 Y135.498 E88.51791
G0 F6000 X59.131 Y134.932
G1 F1200 X66.565 Y142.367 E88.86761
G0 F6000 X67.131 Y142.367
G1 F1200 X59.131 Y134.367 E89.2439
G0 F6000 X59.131 Y133.801
G1 F1200 X67.696 Y142.367 E89.6468
G0 F6000 X68.262 Y142.367
G1 F1200 X59.131 Y133.235 E90.07631
G0 F6000 X59.131 Y132.67
G1 F1200 X68.828 Y142.367 E90.53243
G0 F6000 X69.394 Y142.367
G1 F1200 X59.131 Y132.104 E91.01517
G0 F6000 X59.131 Y131.538
G1 F1200 X69.959 Y142.367 E91.52451
G0 F6000 X70.525 Y142.367
G1 F1200 X59.131 Y130.973 E92.06045
G0 F6000 X59.131 Y130.407
G1 F1200 X71.091 Y142.367 E92.62301
G0 F6000 X71.656 Y142.367
G1 F1200 X59.131 Y129.841 E93.21217
G0 F6000 X59.131 Y129.276
G1 F1200 X72.222 Y142.367 E93.82793
G0 F6000 X72.788 Y142.367
G1 F1200 X59.131 Y128.71 E94.47032
G0 F6000 X59.131 Y128.144
G1 F1200 X73.353 Y142.367 E95.1393
G0 F6000 X73.919 Y142.367
G1 F1200 X59.131 Y127.579 E95.83488
G0 F6000 X59.131 Y127.013
G1 F1200 X74.485 Y142.367 E96.55709
G0 F6000 X75.05 Y142.367
G1 F1200 X59.131 Y126.447 E97.30589
G0 F6000 X59.131 Y125.881
G1 F1200 X75.616 Y142.367 E98.08132
G0 F6000 X76.182 Y142.367
G1 F1200 X59.131 Y125.316 E98.88334
G0 F6000 X59.131 Y124.75
G1 F1200 X76.747 Y142.366 E99.71195
G0 F6000 X77.312 Y142.366
G1 F1200 X59.131 Y124.184 E100.56715
G0 F6000 X59.131 Y123.619
G1 F1200 X77.878 Y142.366 E101.44895
G0 F6000 X78.444 Y142.366
G1 F1200 X59.131 Y123.053 E102.35738
G0 F6000 X59.131 Y122.487
G1 F1200 X79.009 Y142.366 E103.2924
G0 F6000 X79.575 Y142.366
G1 F1200 X59.131 Y121.922 E104.25402
G0 F6000 X59.131 Y121.356
G1 F1200 X80.141 Y142.366 E105.24227
G0 F6000 X80.707 Y142.366
G1 F1200 X59.131 Y120.79 E106.25714
G0 F6000 X59.131 Y120.225
G1 F1200 X81.272 Y142.366 E107.29858
G0 F6000 X81.838 Y142.366
G1 F1200 X59.131 Y119.659 E108.36665
G0 F6000 X59.131 Y119.093
G1 F1200 X82.404 Y142.366 E109.46134
G0 F6000 X82.969 Y142.366
G1 F1200 X59.131 Y118.528 E110.58261
G0 F6000 X59.131 Y117.962
G1 F1200 X83.535 Y142.366 E111.7305
G0 F6000 X84.101 Y142.366
G1 F1200 X59.131 Y117.396 E112.90501
G0 F6000 X59.131 Y116.831
G1 F1200 X84.666 Y142.366 E114.1061
G0 F6000 X85.232 Y142.366
G1 F1200 X59.131 Y116.265 E115.33381
G0 F6000 X59.131 Y115.699
G1 F1200 X85.798 Y142.366 E116.58814
G0 F6000 X86.363 Y142.366
G1 F1200 X59.131 Y115.133 E117.86907
G0 F6000 X59.131 Y114.568
G1 F1200 X86.929 Y142.366 E119.17661
G0 F6000 X87.495 Y142.366
G1 F1200 X59.131 Y114.002 E120.51076
G0 F6000 X59.131 Y113.436
G1 F1200 X88.06 Y142.366 E121.87152
G0 F6000 X88.626 Y142.366
G1 F1200 X59.131 Y112.871 E123.25887
G0 F6000 X59.131 Y112.305
G1 F1200 X89.192 Y142.366 E124.67285
G0 F6000 X89.758 Y142.366
G1 F1200 X59.131 Y111.739 E126.11345
G0 F6000 X59.131 Y111.174
G1 F1200 X90.323 Y142.366 E127.58063
G0 F6000 X90.889 Y142.366
G1 F1200 X59.131 Y110.608 E129.07442
G0 F6000 X59.131 Y110.042
G1 F1200 X91.455 Y142.366 E130.59485
G0 F6000 X92.02 Y142.366
G1 F1200 X59.131 Y109.477 E132.14184
G0 F6000 X59.131 Y108.911
G1 F1200 X92.586 Y142.366 E133.71546
G0 F6000 X93.152 Y142.366
G1 F1200 X59.131 Y108.345 E135.31571
G0 F6000 X59.131 Y107.78
G1 F1200 X93.717 Y142.366 E136.94253
G0 F6000 X94.283 Y142.366
G1 F1200 X59.131 Y107.214 E138.59597
G0 F6000 X59.131 Y106.648
G1 F1200 X94.849 Y142.366 E140.27603
G0 F6000 X95.414 Y142.366
G1 F1200 X59.131 Y106.082 E141.9827
G0 F6000 X59.131 Y105.517
G1 F1200 X95.98 Y142.366 E143.71596
G0 F6000 X96.546 Y142.366
G1 F1200 X59.131 Y104.951 E145.47585
G0 F6000 X59.131 Y104.385
