;FLAVOR:Marlin
;TIME:16968
;Filament used: 11.9428m
;Layer height: 0.2
;MINX:46.582
;MINY:59.081
;MINZ:0.2
;MAXX:173.419
;MAXY:160.919
;MAXZ:20.6
;Generated with Cura_SteamEngine 4.4.1
M140 S60
M105
M190 S60
M104 S200
M105
M109 S200
M82 ;absolute extrusion mode
M201 X500.00 Y500.00 Z100.00 E5000.00 ;Setup machine max acceleration
M203 X500.00 Y500.00 Z10.00 E50.00 ;Setup machine max feedrate
M204 P500.00 R1000.00 T500.00 ;Setup Print/Retract/Travel acceleration
M205 X8.00 Y8.00 Z0.40 E5.00 ;Setup Jerk
M220 S100 ;Reset Feedrate
M221 S100 ;Reset Flowrate

G28 ;Home

G92 E0 ;Reset Extruder
G1 Z2.0 F3000 ;Move Z Axis up
G1 X10.1 Y20 Z0.28 F5000.0 ;Move to start position
G1 X10.1 Y200.0 Z0.28 F1500.0 E15 ;Draw the first line
G1 X10.4 Y200.0 Z0.28 F5000.0 ;Move to side a little
G1 X10.4 Y20 Z0.28 F1500.0 E30 ;Draw the second line
G92 E0 ;Reset Extruder
G1 Z2.0 F3000 ;Move Z Axis up

G92 E0
G92 E0
G1 F1500 E-6.5
;LAYER_COUNT:103
;LAYER:0
M107
G0 F6000 X50.82 Y61.738 Z0.2
;TYPE:SKIRT
G1 F1500 E0
G1 F1200 X51.801 Y61.01 E0.04063
G1 X51.945 Y60.915 E0.04637
G1 X52.749 Y60.433 E0.07755
G1 X53.591 Y60.02 E0.10874
G1 X54.465 Y59.681 E0.13992
G1 X55.366 Y59.418 E0.17114
G1 X56.285 Y59.232 E0.20232
G1 X57.217 Y59.125 E0.23353
G1 X57.81 Y59.099 E0.25327
G1 X58.671 Y59.084 E0.28191
G1 X58.863 Y59.082 E0.28829
G1 X93.359 Y59.081 E1.43564
G1 X161.294 Y59.082 E3.69516
G1 X161.453 Y59.083 E3.70045
G1 X162.146 Y59.093 E3.7235
G1 X163.082 Y59.147 E3.75469
G1 X164.01 Y59.28 E3.78587
G1 X164.924 Y59.491 E3.81707
G1 X165.816 Y59.78 E3.84825
G1 X166.681 Y60.144 E3.87947
G1 X167.511 Y60.58 E3.91065
G1 X168.312 Y61.093 E3.94229
G1 X168.487 Y61.216 E3.9494
G1 X169.231 Y61.787 E3.98059
G1 X169.923 Y62.42 E4.01179
G1 X170.52 Y63.064 E4.04099
G1 X170.757 Y63.341 E4.05312
G1 X171.336 Y64.079 E4.08432
G1 X171.85 Y64.863 E4.1155
G1 X172.295 Y65.689 E4.14671
G1 X172.668 Y66.549 E4.17788
G1 X172.967 Y67.438 E4.20908
G1 X173.188 Y68.35 E4.24029
G1 X173.332 Y69.276 E4.27146
G1 X173.394 Y70.172 E4.30133
G1 X173.414 Y70.859 E4.32419
G1 X173.419 Y71.179 E4.33484
G1 X173.418 Y122.64 E6.04644
G1 X173.419 Y148.764 E6.91532
G1 X173.418 Y148.916 E6.92038
G1 X173.408 Y149.639 E6.94443
G1 X173.355 Y150.576 E6.97564
G1 X173.223 Y151.504 E7.00682
G1 X173.011 Y152.418 E7.03803
G1 X172.723 Y153.31 E7.0692
G1 X172.36 Y154.175 E7.1004
G1 X171.925 Y155.006 E7.1316
G1 X171.42 Y155.796 E7.16278
G1 X170.868 Y156.519 E7.19304
G1 X170.602 Y156.839 E7.20688
G1 X169.972 Y157.534 E7.23808
G1 X169.286 Y158.172 E7.26924
G1 X168.215 Y158.979 E7.31384
G1 X168.07 Y159.075 E7.31962
G1 X167.267 Y159.559 E7.35081
G1 X166.425 Y159.973 E7.38202
G1 X165.552 Y160.313 E7.41318
G1 X164.652 Y160.578 E7.44438
G1 X163.733 Y160.765 E7.47557
G1 X162.801 Y160.874 E7.50678
G1 X162.19 Y160.901 E7.52712
G1 X161.33 Y160.916 E7.55573
G1 X161.138 Y160.918 E7.56212
G1 X93.36 Y160.918 E9.81642
G1 X58.709 Y160.919 E10.96892
G1 X58.548 Y160.918 E10.97428
G1 X57.865 Y160.908 E10.997
G1 X56.929 Y160.854 E11.02818
G1 X56 Y160.721 E11.05939
G1 X55.069 Y160.504 E11.09119
G1 X54.854 Y160.444 E11.09861
G1 X53.962 Y160.154 E11.12981
G1 X53.099 Y159.788 E11.16099
G1 X52.269 Y159.351 E11.19218
G1 X51.48 Y158.844 E11.22338
G1 X50.737 Y158.272 E11.25456
G1 X50.081 Y157.675 E11.28407
G1 X49.917 Y157.513 E11.29173
G1 X49.278 Y156.826 E11.32294
G1 X48.7 Y156.087 E11.35414
G1 X48.188 Y155.302 E11.38532
G1 X47.744 Y154.475 E11.41654
G1 X47.372 Y153.614 E11.44773
G1 X47.111 Y152.848 E11.47465
G1 X47.057 Y152.668 E11.4809
G1 X46.826 Y151.759 E11.51209
G1 X46.673 Y150.833 E11.54331
G1 X46.598 Y149.852 E11.57603
G1 X46.588 Y149.533 E11.58665
G1 X46.583 Y149.188 E11.59812
G1 X46.582 Y71.179 E14.19271
G1 X46.583 Y71.016 E14.19813
G1 X46.593 Y70.341 E14.22059
G1 X46.647 Y69.405 E14.25177
G1 X46.78 Y68.476 E14.28298
G1 X46.993 Y67.563 E14.31417
G1 X47.282 Y66.671 E14.34535
G1 X47.646 Y65.806 E14.37657
G1 X48.082 Y64.976 E14.40775
G1 X48.587 Y64.186 E14.43893
G1 X49.221 Y63.367 E14.47338
G1 X49.487 Y63.055 E14.48702
G1 X50.126 Y62.368 E14.51822
G1 X50.82 Y61.738 E14.5494
G0 F6000 X51.102 Y62.024
G1 F1200 X52.021 Y61.344 E14.58742
G1 X52.165 Y61.249 E14.59316
G1 X52.955 Y60.776 E14.62379
G1 X53.782 Y60.373 E14.65438
G1 X54.642 Y60.044 E14.68501
G1 X55.527 Y59.79 E14.71563
G1 X56.431 Y59.614 E14.74626
G1 X57.346 Y59.517 E14.77687
G1 X57.817 Y59.499 E14.79255
G1 X58.678 Y59.484 E14.82119
G1 X58.863 Y59.482 E14.82734
G1 X93.359 Y59.481 E15.97468
G1 X161.294 Y59.482 E18.23421
G1 X161.447 Y59.483 E18.2393
G1 X162.14 Y59.493 E18.26235
G1 X163.059 Y59.546 E18.29297
G1 X163.97 Y59.679 E18.32359
G1 X164.866 Y59.891 E18.35421
G1 X165.74 Y60.179 E18.38482
G1 X166.587 Y60.542 E18.41547
G1 X167.398 Y60.977 E18.44608
G1 X168.082 Y61.42 E18.47318
G1 X168.257 Y61.543 E18.4803
G1 X168.987 Y62.104 E18.51092
G1 X169.665 Y62.727 E18.54154
G1 X170.216 Y63.324 E18.56856
G1 X170.453 Y63.601 E18.58069
G1 X171.021 Y64.326 E18.61132
G1 X171.523 Y65.097 E18.64192
G1 X171.957 Y65.909 E18.67254
G1 X172.319 Y66.756 E18.70318
G1 X172.606 Y67.631 E18.73381
G1 X172.815 Y68.527 E18.76441
G1 X172.947 Y69.438 E18.79503
G1 X172.995 Y70.184 E18.81989
G1 X173.015 Y70.871 E18.84275
G1 X173.019 Y71.179 E18.85299
G1 X173.018 Y122.64 E20.56459
G1 X173.019 Y148.764 E21.43348
G1 X173.018 Y148.911 E21.43837
G1 X173.008 Y149.634 E21.46242
G1 X172.955 Y150.553 E21.49304
G1 X172.823 Y151.464 E21.52365
G1 X172.612 Y152.36 E21.55427
G1 X172.324 Y153.235 E21.58491
G1 X171.962 Y154.081 E21.61551
G1 X171.527 Y154.892 E21.64612
G1 X171.024 Y155.663 E21.67674
G1 X170.56 Y156.263 E21.70197
G1 X170.294 Y156.583 E21.71581
G1 X169.676 Y157.265 E21.74642
G1 X169 Y157.89 E21.77704
G1 X167.995 Y158.645 E21.81885
G1 X167.85 Y158.741 E21.82463
G1 X167.061 Y159.216 E21.85526
G1 X166.233 Y159.62 E21.88591
G1 X165.374 Y159.951 E21.91652
G1 X164.49 Y160.206 E21.94713
G1 X163.586 Y160.383 E21.97776
G1 X162.671 Y160.482 E22.00837
G1 X162.183 Y160.501 E22.02462
G1 X161.323 Y160.516 E22.05323
G1 X161.138 Y160.518 E22.05938
G1 X93.36 Y160.518 E24.31368
G1 X58.709 Y160.519 E25.46618
G1 X58.554 Y160.518 E25.47134
G1 X57.871 Y160.508 E25.49406
G1 X56.952 Y160.454 E25.52467
G1 X56.041 Y160.321 E25.5553
G1 X55.177 Y160.119 E25.58481
G1 X54.962 Y160.059 E25.59223
G1 X54.087 Y159.773 E25.62285
G1 X53.239 Y159.413 E25.65349
G1 X52.427 Y158.98 E25.6841
G1 X51.655 Y158.478 E25.71473
G1 X50.929 Y157.911 E25.74536
G1 X50.362 Y157.39 E25.77097
G1 X50.198 Y157.228 E25.77864
G1 X49.572 Y156.553 E25.80926
G1 X49.006 Y155.827 E25.83988
G1 X48.506 Y155.054 E25.8705
G1 X48.075 Y154.24 E25.90113
G1 X47.716 Y153.393 E25.93173
G1 X47.494 Y152.733 E25.95489
G1 X47.44 Y152.553 E25.96114
G1 X47.214 Y151.66 E25.99178
G1 X47.066 Y150.752 E26.02238
G1 X46.998 Y149.839 E26.05283
G1 X46.988 Y149.52 E26.06344
G1 X46.983 Y149.188 E26.07449
G1 X46.982 Y71.179 E28.66908
G1 X46.983 Y71.022 E28.6743
G1 X46.993 Y70.347 E28.69675
G1 X47.047 Y69.428 E28.72737
G1 X47.18 Y68.517 E28.75799
G1 X47.392 Y67.621 E28.78862
G1 X47.68 Y66.747 E28.81922
G1 X48.044 Y65.901 E28.84986
G1 X48.479 Y65.09 E28.88046
G1 X48.983 Y64.319 E28.9111
G1 X49.526 Y63.627 E28.94036
G1 X49.792 Y63.315 E28.95399
G1 X50.419 Y62.641 E28.98461
G1 X51.102 Y62.024 E29.01522
G0 F6000 X51.384 Y62.31
G1 F1200 X52.241 Y61.678 E29.05064
G1 X52.385 Y61.583 E29.05638
G1 X53.16 Y61.119 E29.08642
G1 X53.973 Y60.726 E29.11646
G1 X54.818 Y60.407 E29.1465
G1 X55.688 Y60.163 E29.17655
G1 X56.575 Y59.997 E29.20656
G1 X57.824 Y59.899 E29.24823
G1 X58.685 Y59.884 E29.27687
G1 X58.863 Y59.882 E29.2828
G1 X93.359 Y59.881 E30.43014
G1 X161.294 Y59.882 E32.68966
G1 X161.441 Y59.883 E32.69455
G1 X162.134 Y59.893 E32.71761
G1 X163.036 Y59.946 E32.74766
G1 X163.929 Y60.079 E32.77769
G1 X164.807 Y60.29 E32.80772
G1 X165.663 Y60.577 E32.83775
G1 X166.49 Y60.94 E32.86779
G1 X167.282 Y61.374 E32.89783
G1 X167.852 Y61.747 E32.92048
G1 X168.027 Y61.87 E32.9276
G1 X168.742 Y62.422 E32.95764
G1 X169.406 Y63.034 E32.98767
G1 X169.912 Y63.584 E33.01253
G1 X170.149 Y63.861 E33.02466
G1 X170.706 Y64.572 E33.0547
G1 X171.197 Y65.33 E33.08474
G1 X171.619 Y66.129 E33.11479
G1 X171.968 Y66.961 E33.1448
G1 X172.243 Y67.822 E33.17486
G1 X172.441 Y68.703 E33.20489
G1 X172.56 Y69.598 E33.23492
G1 X172.595 Y70.195 E33.25481
G1 X172.615 Y70.882 E33.27767
G1 X172.619 Y71.179 E33.28755
G1 X172.618 Y122.64 E34.99915
G1 X172.619 Y148.764 E35.86804
G1 X172.618 Y148.905 E35.87273
G1 X172.608 Y149.628 E35.89678
G1 X172.556 Y150.53 E35.92683
G1 X172.424 Y151.423 E35.95685
G1 X172.213 Y152.301 E35.98689
G1 X171.926 Y153.157 E36.01692
G1 X171.564 Y153.985 E36.04697
G1 X171.13 Y154.777 E36.07701
G1 X170.628 Y155.528 E36.10705
G1 X170.253 Y156.007 E36.12729
G1 X169.987 Y156.327 E36.14113
G1 X169.379 Y156.995 E36.17117
G1 X168.715 Y157.607 E36.2012
G1 X167.774 Y158.312 E36.24031
G1 X167.629 Y158.408 E36.2461
G1 X166.854 Y158.873 E36.27616
G1 X166.042 Y159.267 E36.30617
G1 X165.198 Y159.588 E36.33621
G1 X164.329 Y159.833 E36.36624
G1 X163.441 Y160 E36.39629
G1 X162.176 Y160.101 E36.4385
G1 X161.316 Y160.116 E36.46711
G1 X161.138 Y160.118 E36.47303
G1 X93.36 Y160.118 E38.72733
G1 X58.709 Y160.119 E39.87983
G1 X58.56 Y160.118 E39.88479
G1 X57.877 Y160.108 E39.9075
G1 X56.975 Y160.055 E39.93756
G1 X56.082 Y159.922 E39.96759
G1 X55.284 Y159.734 E39.99485
G1 X55.069 Y159.674 E40.00228
G1 X54.211 Y159.393 E40.03231
G1 X53.381 Y159.037 E40.06235
G1 X52.586 Y158.609 E40.09238
G1 X51.831 Y158.112 E40.12244
G1 X51.124 Y157.551 E40.15246
G1 X50.643 Y157.106 E40.17425
G1 X50.479 Y156.944 E40.18192
G1 X49.865 Y156.281 E40.21197
G1 X49.312 Y155.567 E40.24201
G1 X48.825 Y154.807 E40.27203
G1 X48.407 Y154.006 E40.30208
G1 X48.061 Y153.172 E40.33212
G1 X47.877 Y152.618 E40.35153
G1 X47.823 Y152.438 E40.35778
G1 X47.602 Y151.562 E40.38783
G1 X47.46 Y150.671 E40.41784
G1 X47.398 Y149.827 E40.44599
G1 X47.388 Y149.508 E40.4566
G1 X47.383 Y149.188 E40.46725
G1 X47.382 Y71.179 E43.06184
G1 X47.383 Y71.028 E43.06686
G1 X47.393 Y70.353 E43.08931
G1 X47.446 Y69.451 E43.11936
G1 X47.579 Y68.558 E43.14939
G1 X47.791 Y67.68 E43.17944
G1 X48.079 Y66.824 E43.20947
G1 X48.442 Y65.997 E43.23951
G1 X48.876 Y65.205 E43.26955
G1 X49.379 Y64.455 E43.29959
G1 X49.83 Y63.886 E43.32374
G1 X50.096 Y63.574 E43.33737
G1 X50.712 Y62.914 E43.3674
G1 X51.384 Y62.31 E43.39745
G1 F1500 E36.89745
;MESH:Lid.stl
G0 F6000 X57.175 Y69.968
G0 X58.002 Y70.67
G0 X58.764 Y148.737
G0 X93.36 Y148.918
;TYPE:WALL-INNER
G1 F1500 E43.39745
G1 F1200 X58.781 Y148.919 E44.54755
G1 X58.582 Y148.919 E44.55417
G1 X58.582 Y148.72 E44.55846
G1 X58.582 Y71.082 E47.14071
G1 X93.359 Y71.081 E48.29739
G1 X161.22 Y71.082 E50.55446
G1 X161.419 Y71.082 E50.56108
G1 X161.419 Y71.281 E50.56536
G1 X161.418 Y122.64 E52.27357
G1 X161.419 Y148.719 E53.14096
G1 X161.419 Y148.918 E53.14758
G1 X161.22 Y148.918 E53.15186
G1 X93.36 Y148.918 E55.40889
G0 F6000 X93.36 Y149.318
G1 F1200 X58.381 Y149.319 E56.5723
G1 X58.182 Y149.319 E56.57892
G1 X58.182 Y149.12 E56.5832
G1 X58.182 Y70.733 E59.19036
G1 X58.223 Y70.682 E59.19254
G1 X93.359 Y70.681 E60.36117
G1 X161.611 Y70.682 E62.63124
G1 X161.776 Y70.682 E62.63673
G1 X161.819 Y70.735 E62.639
G1 X161.819 Y70.9 E62.64448
G1 X161.818 Y122.64 E64.36536
G1 X161.819 Y149.1 E65.24543
G1 X161.819 Y149.266 E65.25095
G1 X161.777 Y149.318 E65.25317
G1 X161.611 Y149.318 E65.25869
G1 X93.36 Y149.318 E67.52873
G0 F6000 X93.36 Y149.718
;TYPE:WALL-OUTER
G1 F1200 X58.021 Y149.719 E68.70411
G1 X57.942 Y149.703 E68.70679
G1 X57.92 Y149.691 E68.70762
G1 X57.799 Y149.57 E68.71331
G1 X57.782 Y149.479 E68.71639
G1 X57.782 Y70.583 E71.34049
G1 X57.818 Y70.547 E71.34218
G1 X58.003 Y70.317 E71.352
G1 X58.058 Y70.282 E71.35416
G1 X93.359 Y70.281 E72.52828
G1 X161.942 Y70.282 E74.80936
G1 X161.995 Y70.316 E74.81145
G1 X162.181 Y70.546 E74.82129
G1 X162.219 Y70.584 E74.82308
G1 X162.218 Y122.64 E76.55447
G1 X162.219 Y149.416 E77.44504
G1 X162.182 Y149.453 E77.44678
G1 X161.997 Y149.683 E77.4566
G1 X161.942 Y149.718 E77.45877
G1 X93.36 Y149.718 E79.73982
G0 F6000 X93.36 Y149.278
G0 X93.36 Y148.528
;TYPE:SKIN
G1 F1200 X58.972 Y148.529 E80.88357
G1 X58.972 Y71.472 E83.44649
G1 X93.359 Y71.471 E84.59021
G1 X161.029 Y71.472 E86.84092
G1 X161.028 Y122.64 E88.54278
G1 X161.029 Y148.528 E89.40381
G1 X93.36 Y148.528 E91.65449
G1 F1500 E85.15449
G0 F6000 X93.36 Y148.808
G0 X59.555 Y148.809
G0 X59.555 Y148.367
G1 F1500 E91.65449
G1 F1200 X59.131 Y147.944 E91.67441
G0 F6000 X59.131 Y147.378
G1 F1200 X60.121 Y148.367 E91.72096
G0 F6000 X60.686 Y148.367
G1 F1200 X59.131 Y146.813 E91.79408
G0 F6000 X59.131 Y146.247
G1 F1200 X61.252 Y148.367 E91.89382
G0 F6000 X61.818 Y148.367
G1 F1200 X59.131 Y145.681 E92.02018
G0 F6000 X59.131 Y145.115
G1 F1200 X62.383 Y148.367 E92.17315
G0 F6000 X62.949 Y148.367
G1 F1200 X59.131 Y144.55 E92.35271
G0 F6000 X59.131 Y143.984
G1 F1200 X63.515 Y148.367 E92.5589
G0 F6000 X64.08 Y148.367
G1 F1200 X59.131 Y143.418 E92.79168
G0 F6000 X59.131 Y142.853
G1 F1200 X64.646 Y148.367 E93.05107
G0 F6000 X65.212 Y148.367
G1 F1200 X59.131 Y142.287 E93.33708
G0 F6000 X59.131 Y141.721
G1 F1200 X65.777 Y148.367 E93.64968
G0 F6000 X66.343 Y148.367
G1 F1200 X59.131 Y141.156 E93.98889
G0 F6000 X59.131 Y140.59
G1 F1200 X66.909 Y148.367 E94.35472
G0 F6000 X67.474 Y148.367
G1 F1200 X59.131 Y140.024 E94.74715
G0 F6000 X59.131 Y139.459
G1 F1200 X68.04 Y148.367 E95.16618
G0 F6000 X68.606 Y148.367
G1 F1200 X59.131 Y138.893 E95.61183
G0 F6000 X59.131 Y138.327
G1 F1200 X69.172 Y148.367 E96.0841
G0 F6000 X69.737 Y148.367
G1 F1200 X59.131 Y137.762 E96.58295
G0 F6000 X59.131 Y137.196
G1 F1200 X70.303 Y148.367 E97.10843
G0 F6000 X70.869 Y148.367
G1 F1200 X59.131 Y136.63 E97.66052
G0 F6000 X59.131 Y136.065
G1 F1200 X71.434 Y148.367 E98.23919
G0 F6000 X72 Y148.367
G1 F1200 X59.131 Y135.499 E98.84449
G0 F6000 X59.131 Y134.933
G1 F1200 X72.566 Y148.367 E99.47641
G0 F6000 X73.131 Y148.367
G1 F1200 X59.131 Y134.367 E100.13492
G0 F6000 X59.131 Y133.802
G1 F1200 X73.697 Y148.367 E100.82004
G0 F6000 X74.263 Y148.367
G1 F1200 X59.131 Y133.236 E101.53178
G0 F6000 X59.131 Y132.67
G1 F1200 X74.828 Y148.367 E102.27012
G0 F6000 X75.394 Y148.367
G1 F1200 X59.131 Y132.105 E103.03506
G0 F6000 X59.131 Y131.539
G1 F1200 X75.96 Y148.367 E103.82662
G0 F6000 X76.525 Y148.367
G1 F1200 X59.131 Y130.973 E104.64478
G0 F6000 X59.131 Y130.408
G1 F1200 X77.09 Y148.367 E105.48951
G0 F6000 X77.656 Y148.367
G1 F1200 X59.131 Y129.842 E106.36087
G0 F6000 X59.131 Y129.276
G1 F1200 X78.222 Y148.367 E107.25886
G0 F6000 X78.787 Y148.367
G1 F1200 X59.131 Y128.711 E108.18341
G0 F6000 X59.131 Y128.145
G1 F1200 X79.353 Y148.367 E109.13459
G0 F6000 X79.919 Y148.367
G1 F1200 X59.131 Y127.579 E110.1124
G0 F6000 X59.131 Y127.014
G1 F1200 X80.485 Y148.367 E111.1168
G0 F6000 X81.05 Y148.367
G1 F1200 X59.131 Y126.448 E112.1478
G0 F6000 X59.131 Y125.882
G1 F1200 X81.616 Y148.367 E113.20543
G0 F6000 X82.182 Y148.367
G1 F1200 X59.131 Y125.316 E114.28968
G0 F6000 X59.131 Y124.751
G1 F1200 X82.747 Y148.367 E115.4005
G0 F6000 X83.313 Y148.367
G1 F1200 X59.131 Y124.185 E116.53795
G0 F6000 X59.131 Y123.619
G1 F1200 X83.879 Y148.367 E117.70202
G0 F6000 X84.444 Y148.367
G1 F1200 X59.131 Y123.054 E118.89267
G0 F6000 X59.131 Y122.488
G1 F1200 X85.01 Y148.367 E120.10993
G0 F6000 X85.576 Y148.367
G1 F1200 X59.131 Y121.922 E121.35383
G0 F6000 X59.131 Y121.357
G1 F1200 X86.141 Y148.367 E122.62429
G0 F6000 X86.707 Y148.367
G1 F1200 X59.131 Y120.791 E123.92138
G0 F6000 X59.131 Y120.225
G1 F1200 X87.273 Y148.367 E125.2451
G0 F6000 X87.838 Y148.367
G1 F1200 X59.131 Y119.66 E126.59539
G0 F6000 X59.131 Y119.094
