;FLAVOR:Marlin
;TIME:21925
;Filament used: 15.3324m
;Layer height: 0.2
;MINX:49.417
;MINY:61.92
;MINZ:0.24
;MAXX:170.58
;MAXY:158.083
;MAXZ:19.69
;Generated with Cura_SteamEngine 4.4.1
M140 S60
M105
M190 S60
M104 S200
M105
M109 S200
M82 ;absolute extrusion mode
M201 X500.00 Y500.00 Z100.00 E5000.00 ;Setup machine max acceleration
M203 X500.00 Y500.00 Z10.00 E50.00 ;Setup machine max feedrate
M204 P500.00 R1000.00 T500.00 ;Setup Print/Retract/Travel acceleration
M205 X8.00 Y8.00 Z0.40 E5.00 ;Setup Jerk
M220 S100 ;Reset Feedrate
M221 S100 ;Reset Flowrate

G28 ;Home

G92 E0 ;Reset Extruder
G1 Z2.0 F3000 ;Move Z Axis up
G1 X10.1 Y20 Z0.28 F5000.0 ;Move to start position
G1 X10.1 Y200.0 Z0.28 F1500.0 E15 ;Draw the first line
G1 X10.4 Y200.0 Z0.28 F5000.0 ;Move to side a little
G1 X10.4 Y20 Z0.28 F1500.0 E30 ;Draw the second line
G92 E0 ;Reset Extruder
G1 Z2.0 F3000 ;Move Z Axis up

G92 E0
G92 E0
G1 F1500 E-6.5
;LAYER_COUNT:93
;LAYER:-6
M107
G0 F9000 X53.519 Y64.586 Z0.24
;TYPE:SUPPORT-INTERFACE
G1 F1500 E0
G1 F1125 X53.933 Y64.277 E0.04124
G1 X54.136 Y64.143 E0.06065
G1 X54.567 Y63.887 E0.10067
G1 X54.759 Y63.785 E0.11802
G1 X55.298 Y63.533 E0.16552
G1 X55.39 Y63.499 E0.17335
G1 X55.905 Y63.318 E0.21692
G1 X56.175 Y63.238 E0.2394
G1 X56.628 Y63.13 E0.27658
G1 X56.87 Y63.085 E0.29622
G1 X57.378 Y63.018 E0.33713
G1 X57.574 Y63 E0.35284
G1 X58.102 Y62.981 E0.39501
G1 X126.64 Y62.982 E5.86601
G1 X162.046 Y62.985 E8.69227
G1 X162.609 Y63.013 E8.73727
G1 X162.82 Y63.034 E8.75419
G1 X163.349 Y63.112 E8.79688
G1 X163.46 Y63.136 E8.80594
G1 X163.978 Y63.261 E8.84848
G1 X164.262 Y63.348 E8.87219
G1 X165.248 Y63.735 E8.95674
G1 X165.769 Y64.016 E9.00399
G1 X165.969 Y64.138 E9.02269
G1 X166.375 Y64.414 E9.06188
G1 X166.571 Y64.563 E9.08154
G1 X167.174 Y65.086 E9.14525
G1 X167.319 Y65.228 E9.16145
G1 X167.729 Y65.667 E9.2094
G1 X167.855 Y65.816 E9.22498
G1 X168.153 Y66.209 E9.26435
G1 X168.3 Y66.429 E9.28547
G1 X168.7 Y67.109 E9.34844
G1 X168.957 Y67.673 E9.39792
G1 X169.031 Y67.862 E9.41412
G1 X169.194 Y68.345 E9.45481
G1 X169.251 Y68.546 E9.47149
G1 X169.398 Y69.213 E9.52601
G1 X169.478 Y69.807 E9.57385
G1 X169.497 Y70.028 E9.59156
G1 X169.516 Y70.531 E9.63174
G1 X169.518 Y149.383 E15.92605
G1 X169.514 Y149.514 E15.93651
G1 X169.486 Y150.065 E15.98055
G1 X169.462 Y150.301 E15.99949
G1 X169.385 Y150.8 E16.03979
G1 X169.339 Y151.016 E16.05742
G1 X169.206 Y151.522 E16.09918
G1 X169.147 Y151.71 E16.11491
G1 X168.973 Y152.186 E16.15537
G1 X168.942 Y152.256 E16.16148
G1 X168.686 Y152.797 E16.20925
G1 X168.592 Y152.972 E16.22511
G1 X168.315 Y153.43 E16.26784
G1 X168.201 Y153.597 E16.28398
G1 X167.824 Y154.088 E16.33339
G1 X167.662 Y154.284 E16.35369
G1 X167.269 Y154.726 E16.4009
G1 X167.108 Y154.889 E16.41919
G1 X166.741 Y155.225 E16.45891
G1 X166.567 Y155.369 E16.47694
G1 X166.095 Y155.72 E16.52389
G1 X166.006 Y155.777 E16.53233
G1 X165.523 Y156.074 E16.57759
G1 X165.32 Y156.184 E16.59602
G1 X164.859 Y156.405 E16.63683
G1 X164.647 Y156.494 E16.65518
G1 X163.956 Y156.733 E16.71354
G1 X163.372 Y156.873 E16.76148
G1 X163.167 Y156.911 E16.77813
G1 X162.639 Y156.982 E16.82065
G1 X162.46 Y156.997 E16.83499
G1 X161.915 Y157.018 E16.87853
G1 X93.36 Y157.018 E22.35088
G1 X57.987 Y157.015 E25.17451
G1 X57.436 Y156.987 E25.21855
G1 X57.2 Y156.963 E25.23749
G1 X56.701 Y156.886 E25.27779
G1 X56.486 Y156.84 E25.29534
G1 X55.968 Y156.704 E25.33809
G1 X55.792 Y156.648 E25.35283
G1 X55.315 Y156.474 E25.39336
G1 X55.245 Y156.443 E25.39947
G1 X54.7 Y156.185 E25.44761
G1 X54.513 Y156.084 E25.46457
G1 X54.067 Y155.814 E25.50619
G1 X53.904 Y155.702 E25.52198
G1 X53.489 Y155.387 E25.56357
G1 X53.191 Y155.14 E25.59446
G1 X52.774 Y154.769 E25.63902
G1 X52.61 Y154.606 E25.65747
G1 X52.275 Y154.241 E25.69702
G1 X52.127 Y154.062 E25.71556
G1 X51.764 Y153.571 E25.7643
G1 X51.724 Y153.508 E25.77026
G1 X51.426 Y153.023 E25.8157
G1 X51.314 Y152.817 E25.83442
G1 X51.094 Y152.358 E25.87505
G1 X51.006 Y152.147 E25.8933
G1 X50.766 Y151.452 E25.95199
G1 X50.626 Y150.867 E26
G1 X50.588 Y150.661 E26.01673
G1 X50.517 Y150.13 E26.05949
G1 X50.503 Y149.96 E26.07311
G1 X50.482 Y149.424 E26.11592
G1 X50.482 Y97.36 E30.2719
G1 X50.485 Y70.474 E32.41805
G1 X50.513 Y69.923 E32.46209
G1 X50.537 Y69.682 E32.48143
G1 X50.615 Y69.182 E32.52182
G1 X50.658 Y68.971 E32.53901
G1 X50.769 Y68.536 E32.57485
G1 X50.798 Y68.443 E32.58262
G1 X50.985 Y67.906 E32.62801
G1 X51.07 Y67.698 E32.64595
G1 X51.284 Y67.238 E32.68645
G1 X51.399 Y67.021 E32.70605
G1 X51.686 Y66.543 E32.75056
G1 X52.026 Y66.068 E32.79719
G1 X52.177 Y65.877 E32.81662
G1 X52.508 Y65.502 E32.85655
G1 X52.674 Y65.332 E32.87552
G1 X53.326 Y64.746 E32.94549
G1 X53.519 Y64.586 E32.9655
G0 F9000 X52.8 Y65.218
G1 F1125 X52.8 Y154.792 E40.11569
G0 F9000 X54.4 Y156.015
G1 F1125 X54.4 Y63.986 E47.46184
G0 F9000 X56 Y63.289
G1 F1125 X56 Y156.712 E54.91927
G0 F9000 X57.6 Y156.995
G1 F1125 X57.6 Y62.999 E62.42244
G0 F9000 X59.2 Y62.982
G1 F1125 X59.2 Y157.015 E69.92856
G0 F9000 X60.8 Y157.015
G1 F1125 X60.8 Y62.982 E77.43468
G0 F9000 X62.4 Y62.982
G1 F1125 X62.4 Y157.015 E84.9408
G0 F9000 X64 Y157.015
G1 F1125 X64 Y62.982 E92.44692
G0 F9000 X65.6 Y62.982
G1 F1125 X65.6 Y157.015 E99.95304
G0 F9000 X67.2 Y157.015
G1 F1125 X67.2 Y62.982 E107.45916
G0 F9000 X68.8 Y62.982
G1 F1125 X68.8 Y157.015 E114.96528
G0 F9000 X70.4 Y157.016
G1 F1125 X70.4 Y62.982 E122.47148
G0 F9000 X72 Y62.982
G1 F1125 X72 Y157.016 E129.97768
G0 F9000 X73.6 Y157.016
G1 F1125 X73.6 Y62.982 E137.48388
G0 F9000 X75.2 Y62.982
G1 F1125 X75.2 Y157.016 E144.99008
G0 F9000 X76.8 Y157.016
G1 F1125 X76.8 Y62.982 E152.49628
G0 F9000 X78.4 Y62.982
G1 F1125 X78.4 Y157.016 E160.00248
G0 F9000 X80 Y157.016
G1 F1125 X80 Y62.982 E167.50868
G0 F9000 X81.6 Y62.982
G1 F1125 X81.6 Y157.017 E175.01497
G0 F9000 X83.2 Y157.017
G1 F1125 X83.2 Y62.982 E182.52125
G0 F9000 X84.8 Y62.982
G1 F1125 X84.8 Y157.017 E190.02753
G0 F9000 X86.4 Y157.017
G1 F1125 X86.4 Y62.982 E197.53381
G0 F9000 X88 Y62.982
G1 F1125 X88 Y157.017 E205.04009
G0 F9000 X89.6 Y157.017
G1 F1125 X89.6 Y62.982 E212.54637
G0 F9000 X91.2 Y62.982
G1 F1125 X91.2 Y157.017 E220.05265
G0 F9000 X92.8 Y157.017
G1 F1125 X92.8 Y62.982 E227.55893
G0 F9000 X94.4 Y62.982
G1 F1125 X94.4 Y157.018 E235.06529
G0 F9000 X96 Y157.018
G1 F1125 X96 Y62.982 E242.57165
G0 F9000 X97.6 Y62.982
G1 F1125 X97.6 Y157.018 E250.07801
G0 F9000 X99.2 Y157.018
G1 F1125 X99.2 Y62.982 E257.58437
G0 F9000 X100.8 Y62.982
G1 F1125 X100.8 Y157.018 E265.09073
G0 F9000 X102.4 Y157.018
G1 F1125 X102.4 Y62.982 E272.59709
G0 F9000 X104 Y62.982
G1 F1125 X104 Y157.018 E280.10345
G0 F9000 X105.6 Y157.018
G1 F1125 X105.6 Y62.982 E287.60981
G0 F9000 X107.2 Y62.982
G1 F1125 X107.2 Y157.018 E295.11617
G0 F9000 X108.8 Y157.018
G1 F1125 X108.8 Y62.982 E302.62253
G0 F9000 X110.4 Y62.982
G1 F1125 X110.4 Y157.018 E310.12889
G0 F9000 X112 Y157.018
G1 F1125 X112 Y62.982 E317.63525
G0 F9000 X113.6 Y62.982
G1 F1125 X113.6 Y157.018 E325.14161
G0 F9000 X115.2 Y157.018
G1 F1125 X115.2 Y62.982 E332.64797
G0 F9000 X116.8 Y62.982
G1 F1125 X116.8 Y157.018 E340.15433
G0 F9000 X118.4 Y157.018
G1 F1125 X118.4 Y62.982 E347.66069
G0 F9000 X120 Y62.982
G1 F1125 X120 Y157.018 E355.16705
G0 F9000 X121.6 Y157.018
G1 F1125 X121.6 Y62.982 E362.67341
G0 F9000 X123.2 Y62.982
G1 F1125 X123.2 Y157.018 E370.17977
G0 F9000 X124.8 Y157.018
G1 F1125 X124.8 Y62.982 E377.68613
G0 F9000 X126.4 Y62.982
G1 F1125 X126.4 Y157.018 E385.19249
G0 F9000 X128 Y157.018
G1 F1125 X128 Y62.983 E392.69877
G0 F9000 X129.6 Y62.983
G1 F1125 X129.6 Y157.018 E400.20505
G0 F9000 X131.2 Y157.018
G1 F1125 X131.2 Y62.983 E407.71133
G0 F9000 X132.8 Y62.983
G1 F1125 X132.8 Y157.018 E415.21761
G0 F9000 X134.4 Y157.018
G1 F1125 X134.4 Y62.983 E422.72389
G0 F9000 X136 Y62.983
G1 F1125 X136 Y157.018 E430.23017
G0 F9000 X137.6 Y157.018
G1 F1125 X137.6 Y62.983 E437.73645
G0 F9000 X139.2 Y62.984
G1 F1125 X139.2 Y157.018 E445.24265
G0 F9000 X140.8 Y157.018
G1 F1125 X140.8 Y62.984 E452.74885
G0 F9000 X142.4 Y62.984
G1 F1125 X142.4 Y157.018 E460.25505
G0 F9000 X144 Y157.018
G1 F1125 X144 Y62.984 E467.76125
G0 F9000 X145.6 Y62.984
G1 F1125 X145.6 Y157.018 E475.26746
G0 F9000 X147.2 Y157.018
G1 F1125 X147.2 Y62.984 E482.77366
G0 F9000 X148.8 Y62.984
G1 F1125 X148.8 Y157.018 E490.27986
G0 F9000 X150.4 Y157.018
G1 F1125 X150.4 Y62.985 E497.78598
G0 F9000 X152 Y62.985
G1 F1125 X152 Y157.018 E505.2921
G0 F9000 X153.6 Y157.018
G1 F1125 X153.6 Y62.985 E512.79822
G0 F9000 X155.2 Y62.985
G1 F1125 X155.2 Y157.018 E520.30434
G0 F9000 X156.8 Y157.018
G1 F1125 X156.8 Y62.985 E527.81046
G0 F9000 X158.4 Y62.985
G1 F1125 X158.4 Y157.018 E535.31658
G0 F9000 X160 Y157.018
G1 F1125 X160 Y62.985 E542.8227
G0 F9000 X161.6 Y62.985
G1 F1125 X161.6 Y157.018 E550.32882
G0 F9000 X163.2 Y156.905
G1 F1125 X163.2 Y63.091 E557.81746
G0 F9000 X164.8 Y63.56
G1 F1125 X164.8 Y156.43 E565.23075
G0 F9000 X166.4 Y155.494
G1 F1125 X166.4 Y64.434 E572.49955
G0 F9000 X168 Y66.008
G1 F1125 X168 Y153.859 E579.5122
G1 F1500 E573.0122
G0 F9000 X168.641 Y154.769
G0 X167.838 Y155.663
G0 X166.681 Y156.609
G0 X165.303 Y157.374
G0 X164.221 Y157.764
G0 X162.756 Y158.039
G0 X161.931 Y158.083
G0 X57.346 Y158.047
G0 X56.23 Y157.873
G0 X54.796 Y157.407
G0 X53.501 Y156.715
G0 X52.053 Y155.553
G0 X51.116 Y154.469
G0 X50.363 Y153.295
G0 X51.2 Y152.579
G1 F1500 E579.5122
G1 F1125 X51.2 Y67.418 E586.31011
G1 F1500 E579.81011
G0 F300 X51.2 Y67.418 Z0.54
G0 F9000 X50.098 Y67.263
G0 X49.622 Y68.726
G0 X49.453 Y69.833
G0 X49.44 Y150.018
G0 X49.586 Y151.098
G0 X50.011 Y152.525
G0 X50.408 Y153.358
G0 X51.011 Y154.348
G0 X52.127 Y154.06
;TIME_ELAPSED:408.058794
;LAYER:-5
M140 S60
;TYPE:SUPPORT
G1 F1500 E586.31011
G1 F1125 X52.274 Y154.239 E586.33323
G1 X52.609 Y154.605 E586.38273
G1 X52.774 Y154.768 E586.40588
G1 X53.191 Y155.139 E586.46157
G1 X53.489 Y155.386 E586.50019
G1 X53.796 Y155.62 E586.53871
G1 X51.811 Y153.635 E586.81881
G1 X51.763 Y153.57 E586.82687
G1 X51.723 Y153.507 E586.83432
G1 X51.426 Y153.022 E586.89107
G1 X51.314 Y152.816 E586.91446
G1 X51.094 Y152.357 E586.96525
G1 X51.005 Y152.146 E586.9881
G1 X50.766 Y151.45 E587.06153
G1 X50.679 Y151.088 E587.09868
G1 X56.409 Y156.818 E587.90724
G1 X56.486 Y156.839 E587.91521
G1 X56.7 Y156.885 E587.93705
G1 X57.199 Y156.962 E587.98743
G1 X57.435 Y156.986 E588.0111
G1 X57.986 Y157.014 E588.06615
G1 X58.019 Y157.014 E588.06944
G1 X50.483 Y149.478 E589.13285
G1 X50.481 Y149.422 E589.13844
G1 X50.481 Y148.062 E589.27414
G1 X59.433 Y157.014 E590.53737
G1 X60.847 Y157.014 E590.67846
G1 X50.481 Y146.648 E592.14121
G1 X50.481 Y145.234 E592.2823
G1 X62.262 Y157.014 E593.94466
G1 X63.676 Y157.014 E594.08574
G1 X50.481 Y143.819 E595.9477
G1 X50.481 Y142.405 E596.08879
G1 X65.09 Y157.014 E598.15028
G1 X66.504 Y157.014 E598.29137
G1 X50.481 Y140.991 E600.55239
G1 X50.481 Y139.577 E600.69348
G1 X67.919 Y157.015 E603.15417
G1 X69.333 Y157.015 E603.29526
G1 X50.481 Y138.163 E605.95548
G1 X50.481 Y136.748 E606.09667
G1 X70.748 Y157.015 E608.95656
G1 X72.162 Y157.015 E609.09765
G1 X50.481 Y135.334 E612.15707
G1 X50.481 Y133.92 E612.29816
G1 X73.576 Y157.015 E615.55711
G1 X74.99 Y157.015 E615.6982
G1 X50.481 Y132.506 E619.15669
G1 X50.481 Y131.091 E619.29788
G1 X76.405 Y157.015 E622.95603
G1 X77.819 Y157.015 E623.09712
G1 X50.481 Y129.677 E626.95481
G1 X50.481 Y128.263 E627.0959
G1 X79.234 Y157.015 E631.15319
G1 X80.648 Y157.015 E631.29428
G1 X50.481 Y126.849 E635.5511
G1 X50.481 Y125.435 E635.69219
G1 X82.062 Y157.015 E640.14854
G1 X83.476 Y157.015 E640.28963
G1 X50.481 Y124.02 E644.94558
G1 X50.481 Y122.606 E645.08667
G1 X84.891 Y157.016 E649.94229
G1 X86.305 Y157.016 E650.08338
G1 X50.481 Y121.192 E655.13853
G1 X50.481 Y119.778 E655.27962
G1 X87.72 Y157.016 E660.53438
G1 X89.134 Y157.016 E660.67547
G1 X50.481 Y118.364 E666.12975
G1 X50.481 Y116.949 E666.27094
G1 X90.548 Y157.016 E671.92483
G1 X91.962 Y157.016 E672.06592
G1 X50.481 Y115.535 E677.91933
G1 X50.481 Y114.121 E678.06042
G1 X93.377 Y157.017 E684.11351
G1 X94.791 Y157.017 E684.2546
G1 X50.481 Y112.707 E690.50722
G1 X50.481 Y111.292 E690.64841
G1 X96.206 Y157.017 E697.1007
G1 X97.62 Y157.017 E697.24179
G1 X50.481 Y109.878 E703.89361
G1 X50.481 Y108.464 E704.0347
G1 X99.034 Y157.017 E710.88606
G1 X100.448 Y157.017 E711.02715
G1 X50.481 Y107.05 E718.07803
G1 X50.481 Y105.636 E718.21912
G1 X101.862 Y157.017 E725.46953
G1 X103.277 Y157.017 E725.61072
G1 X50.481 Y104.221 E733.06081
G1 X50.481 Y102.807 E733.2019
G1 X104.691 Y157.017 E740.85151
G1 X106.105 Y157.017 E740.9926
G1 X50.481 Y101.393 E748.84175
G1 X50.481 Y99.979 E748.98284
G1 X107.519 Y157.017 E757.03152
G1 X108.934 Y157.017 E757.17271
G1 X50.481 Y98.565 E765.42099
G1 X50.482 Y97.359 E765.54132
G1 X50.482 Y97.151 E765.56208
G1 X110.348 Y157.017 E774.00982
G1 X111.762 Y157.017 E774.1509
G1 X50.482 Y95.737 E782.79817
G1 X50.482 Y94.323 E782.93926
G1 X113.176 Y157.017 E791.78606
G1 X114.59 Y157.017 E791.92715
G1 X50.482 Y92.908 E800.97356
G1 X50.482 Y91.494 E801.11465
G1 X116.005 Y157.017 E810.36065
G1 X117.419 Y157.017 E810.50174
G1 X50.482 Y90.08 E819.94727
G1 X50.482 Y88.666 E820.08836
G1 X118.833 Y157.017 E829.73343
G1 X120.247 Y157.017 E829.87452
G1 X50.483 Y87.252 E839.71904
G1 X50.483 Y85.838 E839.86013
G1 X121.661 Y157.017 E849.90418
G1 X123.076 Y157.017 E850.04537
G1 X50.483 Y84.424 E860.28903
G1 X50.483 Y83.01 E860.43012
G1 X124.49 Y157.017 E870.87331
G1 X125.904 Y157.017 E871.0144
G1 X50.483 Y81.595 E881.65718
G1 X50.483 Y80.181 E881.79827
G1 X127.318 Y157.017 E892.64059
G1 X128.733 Y157.017 E892.78178
G1 X50.483 Y78.768 E903.82363
G1 X50.483 Y77.353 E903.96482
G1 X130.147 Y157.017 E915.20627
G1 X131.561 Y157.017 E915.34736
G1 X50.483 Y75.939 E926.78834
G1 X50.483 Y74.525 E926.92943
G1 X132.975 Y157.017 E938.56995
G1 X134.389 Y157.017 E938.71103
G1 X50.483 Y73.111 E950.55108
G1 X50.483 Y71.697 E950.69217
G1 X135.804 Y157.017 E962.73181
G1 X137.218 Y157.017 E962.8729
G1 X50.493 Y70.292 E975.11074
G1 X50.513 Y69.922 E975.14771
G1 X50.536 Y69.681 E975.17186
G1 X50.615 Y69.181 E975.22237
G1 X50.645 Y69.029 E975.23783
G1 X138.632 Y157.017 E987.65382
G1 X140.046 Y157.017 E987.79491
G1 X50.971 Y67.942 E1000.36435
G1 X50.985 Y67.904 E1000.36839
G1 X51.07 Y67.696 E1000.39081
G1 X51.283 Y67.237 E1000.44131
G1 X51.398 Y67.02 E1000.46581
G1 X51.422 Y66.979 E1000.47055
G1 X141.46 Y157.017 E1013.17588
G1 X142.875 Y157.017 E1013.31707
G1 X51.983 Y66.125 E1026.14292
G1 X52.026 Y66.067 E1026.15012
G1 X52.176 Y65.876 E1026.17435
G1 X52.507 Y65.501 E1026.22426
G1 X52.638 Y65.366 E1026.24303
G1 X144.289 Y157.017 E1039.17598
G1 X145.703 Y157.017 E1039.31707
G1 X53.383 Y64.697 E1052.34442
G1 X53.518 Y64.585 E1052.36192
G1 X53.933 Y64.276 E1052.41355
G1 X54.135 Y64.142 E1052.43773
G1 X54.203 Y64.102 E1052.44561
G1 X147.117 Y157.017 E1065.55685
G1 X148.532 Y157.017 E1065.69803
G1 X55.127 Y63.612 E1078.87849
G1 X55.297 Y63.532 E1078.89724
G1 X55.39 Y63.498 E1078.90712
G1 X55.905 Y63.317 E1078.96158
G1 X56.168 Y63.239 E1078.98896
G1 X149.946 Y157.017 E1092.22205
G1 X151.36 Y157.017 E1092.36314
G1 X57.362 Y63.019 E1105.62727
G1 X57.377 Y63.017 E1105.62878
G1 X57.574 Y62.998 E1105.64853
G1 X58.102 Y62.979 E1105.70124
G1 X58.737 Y62.98 E1105.76461
G1 X152.774 Y157.017 E1119.03424
G1 X154.188 Y157.017 E1119.17533
G1 X60.152 Y62.98 E1132.4449
G1 X61.566 Y62.98 E1132.58599
G1 X155.603 Y157.017 E1145.85562
G1 X157.017 Y157.017 E1145.99671
G1 X62.98 Y62.98 E1159.26635
G1 X64.394 Y62.98 E1159.40744
G1 X158.431 Y157.017 E1172.67708
G1 X159.845 Y157.017 E1172.81816
G1 X65.809 Y62.98 E1186.08773
G1 X67.223 Y62.98 E1186.22882
