;FLAVOR:Marlin
;TIME:25940
;Filament used: 18.9501m
;Layer height: 0.2
;MINX:47.934
;MINY:61.92
;MINZ:0.24
;MAXX:171.583
;MAXY:158.082
;MAXZ:27.09
;Generated with Cura_SteamEngine 4.4.1
M140 S60
M105
M190 S60
M104 S200
M105
M109 S200
M82 ;absolute extrusion mode
M201 X500.00 Y500.00 Z100.00 E5000.00 ;Setup machine max acceleration
M203 X500.00 Y500.00 Z10.00 E50.00 ;Setup machine max feedrate
M204 P500.00 R1000.00 T500.00 ;Setup Print/Retract/Travel acceleration
M205 X8.00 Y8.00 Z0.40 E5.00 ;Setup Jerk
M220 S100 ;Reset Feedrate
M221 S100 ;Reset Flowrate

G28 ;Home

G92 E0 ;Reset Extruder
G1 Z2.0 F3000 ;Move Z Axis up
G1 X10.1 Y20 Z0.28 F5000.0 ;Move to start position
G1 X10.1 Y200.0 Z0.28 F1500.0 E15 ;Draw the first line
G1 X10.4 Y200.0 Z0.28 F5000.0 ;Move to side a little
G1 X10.4 Y20 Z0.28 F1500.0 E30 ;Draw the second line
G92 E0 ;Reset Extruder
G1 Z2.0 F3000 ;Move Z Axis up

G92 E0
G92 E0
G1 F1500 E-6.5
;LAYER_COUNT:130
;LAYER:-6
M107
G0 F9000 X54.259 Y64.775 Z0.24
;TYPE:SUPPORT-INTERFACE
G1 F1500 E0
G1 F1125 X54.433 Y64.631 E0.01803
G1 X54.905 Y64.28 E0.06498
G1 X54.994 Y64.223 E0.07342
G1 X55.477 Y63.926 E0.11868
G1 X55.68 Y63.816 E0.13711
G1 X56.142 Y63.594 E0.17803
G1 X56.353 Y63.506 E0.19627
G1 X56.978 Y63.285 E0.24919
G1 X57.044 Y63.267 E0.25465
G1 X57.628 Y63.127 E0.30259
G1 X57.833 Y63.089 E0.31923
G1 X58.361 Y63.018 E0.36176
G1 X58.54 Y63.003 E0.3761
G1 X59.085 Y62.982 E0.41964
G1 X127.64 Y62.982 E5.89199
G1 X163.013 Y62.985 E8.71562
G1 X163.564 Y63.013 E8.75966
G1 X163.8 Y63.037 E8.77859
G1 X164.299 Y63.114 E8.8189
G1 X164.515 Y63.16 E8.83653
G1 X165.032 Y63.296 E8.8792
G1 X165.209 Y63.352 E8.89402
G1 X165.685 Y63.526 E8.93447
G1 X165.755 Y63.557 E8.94058
G1 X166.3 Y63.815 E8.98872
G1 X166.487 Y63.916 E9.00568
G1 X166.933 Y64.186 E9.0473
G1 X167.096 Y64.298 E9.06309
G1 X167.511 Y64.613 E9.10468
G1 X167.809 Y64.86 E9.13557
G1 X168.226 Y65.231 E9.18013
G1 X168.389 Y65.392 E9.19841
G1 X168.725 Y65.759 E9.23813
G1 X168.869 Y65.934 E9.25622
G1 X169.225 Y66.413 E9.30386
G1 X169.273 Y66.487 E9.3109
G1 X169.574 Y66.977 E9.35681
G1 X169.684 Y67.18 E9.37524
G1 X169.906 Y67.642 E9.41616
G1 X169.992 Y67.848 E9.43397
G1 X170.231 Y68.536 E9.49211
G1 X170.374 Y69.133 E9.54112
G1 X170.412 Y69.338 E9.55776
G1 X170.481 Y69.853 E9.59924
G1 X170.497 Y70.034 E9.61374
G1 X170.518 Y70.576 E9.65704
G1 X170.518 Y149.397 E15.94887
G1 X170.514 Y149.528 E15.95933
G1 X170.486 Y150.079 E16.00337
G1 X170.462 Y150.315 E16.02231
G1 X170.385 Y150.814 E16.06261
G1 X170.341 Y151.031 E16.08029
G1 X170.233 Y151.457 E16.11537
G1 X170.201 Y151.56 E16.12398
G1 X170.017 Y152.089 E16.16869
G1 X169.925 Y152.315 E16.18816
G1 X169.715 Y152.763 E16.22766
G1 X169.607 Y152.97 E16.2463
G1 X169.373 Y153.369 E16.28322
G1 X169.311 Y153.461 E16.29207
G1 X168.972 Y153.937 E16.33872
G1 X168.831 Y154.113 E16.35672
G1 X168.487 Y154.505 E16.39835
G1 X168.344 Y154.651 E16.41467
G1 X167.761 Y155.18 E16.47751
G1 X167.462 Y155.428 E16.50852
G1 X167.066 Y155.723 E16.54793
G1 X166.864 Y155.857 E16.56728
G1 X166.433 Y156.113 E16.6073
G1 X166.241 Y156.215 E16.62465
G1 X165.695 Y156.469 E16.67272
G1 X165.615 Y156.499 E16.67954
G1 X165.095 Y156.682 E16.72355
G1 X164.825 Y156.762 E16.74603
G1 X164.372 Y156.87 E16.7832
G1 X164.13 Y156.915 E16.80285
G1 X163.622 Y156.982 E16.84375
G1 X163.426 Y157 E16.85946
G1 X162.898 Y157.019 E16.90164
G1 X127.641 Y157.019 E19.716
G1 X59.103 Y157.018 E25.187
G1 X58.972 Y157.014 E25.19746
G1 X58.421 Y156.986 E25.2415
G1 X58.185 Y156.962 E25.26044
G1 X57.685 Y156.885 E25.30082
G1 X57.462 Y156.839 E25.319
G1 X57.03 Y156.729 E25.35458
G1 X56.929 Y156.697 E25.36304
G1 X56.408 Y156.516 E25.40707
G1 X56.185 Y156.425 E25.42629
G1 X55.737 Y156.215 E25.46579
G1 X55.53 Y156.107 E25.48443
G1 X55.124 Y155.868 E25.52203
G1 X55.018 Y155.796 E25.53226
G1 X54.559 Y155.469 E25.57725
G1 X54.387 Y155.331 E25.59485
G1 X53.995 Y154.987 E25.63648
G1 X53.847 Y154.841 E25.65308
G1 X53.314 Y154.253 E25.71643
G1 X53.07 Y153.959 E25.74693
G1 X52.777 Y153.566 E25.78606
G1 X52.64 Y153.36 E25.8058
G1 X52.387 Y152.933 E25.84542
G1 X52.285 Y152.741 E25.86278
G1 X52.034 Y152.202 E25.91024
G1 X52.001 Y152.115 E25.91767
G1 X51.818 Y151.595 E25.96167
G1 X51.738 Y151.325 E25.98415
G1 X51.628 Y150.863 E26.02206
G1 X51.585 Y150.63 E26.04097
G1 X51.518 Y150.122 E26.08187
G1 X51.5 Y149.927 E26.09751
G1 X51.481 Y149.406 E26.13912
G1 X51.481 Y123.729 E28.18877
G1 X51.439 Y123.061 E28.2422
G1 X51.31 Y122.39 E28.29674
G1 X51.097 Y121.741 E28.35127
G1 X50.804 Y121.124 E28.40579
G1 X50.438 Y120.552 E28.46
G1 X50.255 Y120.303 E28.48466
G1 X50.114 Y120.09 E28.50505
G1 X49.861 Y119.66 E28.54488
G1 X49.751 Y119.447 E28.56401
G1 X49.543 Y118.992 E28.60395
G1 X49.46 Y118.781 E28.62205
G1 X49.3 Y118.307 E28.66198
G1 X49.233 Y118.067 E28.68187
G1 X49.132 Y117.615 E28.71884
G1 X49.087 Y117.351 E28.74022
G1 X49.028 Y116.856 E28.78001
G1 X49.012 Y116.65 E28.79651
G1 X49 Y116.257 E28.82789
G1 X48.999 Y115.514 E28.8872
G1 X49.004 Y97.36 E30.33633
G1 X49.031 Y96.818 E30.37965
G1 X49.058 Y96.558 E30.40052
G1 X49.137 Y96.055 E30.44116
G1 X49.178 Y95.862 E30.45691
G1 X49.312 Y95.355 E30.49877
G1 X49.379 Y95.144 E30.51644
G1 X49.548 Y94.695 E30.55474
G1 X49.65 Y94.463 E30.57497
G1 X49.871 Y94.021 E30.61442
G1 X49.994 Y93.805 E30.63426
G1 X50.253 Y93.399 E30.6727
G1 X50.482 Y93.078 E30.70418
G1 X50.837 Y92.51 E30.75764
G1 X51.122 Y91.889 E30.81218
G1 X51.326 Y91.238 E30.86664
G1 X51.447 Y90.567 E30.92107
G1 X51.482 Y89.96 E30.9696
G1 X51.486 Y70.486 E32.5241
G1 X51.514 Y69.935 E32.56814
G1 X51.538 Y69.694 E32.58747
G1 X51.615 Y69.2 E32.62738
G1 X51.661 Y68.984 E32.64501
G1 X51.797 Y68.467 E32.68768
G1 X51.853 Y68.29 E32.7025
G1 X52.029 Y67.808 E32.74346
G1 X52.058 Y67.744 E32.74907
G1 X52.316 Y67.199 E32.79721
G1 X52.417 Y67.012 E32.81417
G1 X52.687 Y66.566 E32.85579
G1 X52.799 Y66.403 E32.87158
G1 X53.338 Y65.716 E32.94128
G1 X53.731 Y65.274 E32.98849
G1 X53.892 Y65.111 E33.00678
G1 X54.259 Y64.775 E33.0465
G0 F9000 X54.4 Y64.658
G1 F1125 X54.4 Y155.341 E40.28521
G0 F9000 X56 Y156.338
G1 F1125 X56 Y63.662 E47.68301
G0 F9000 X57.6 Y63.133
G1 F1125 X57.6 Y156.867 E55.16526
G0 F9000 X59.2 Y157.018
G1 F1125 X59.2 Y62.982 E62.67162
G0 F9000 X60.8 Y62.982
G1 F1125 X60.8 Y157.018 E70.17798
G0 F9000 X62.4 Y157.018
G1 F1125 X62.4 Y62.982 E77.68434
G0 F9000 X64 Y62.982
G1 F1125 X64 Y157.018 E85.1907
G0 F9000 X65.6 Y157.018
G1 F1125 X65.6 Y62.982 E92.69706
G0 F9000 X67.2 Y62.982
G1 F1125 X67.2 Y157.018 E100.20342
G0 F9000 X68.8 Y157.018
G1 F1125 X68.8 Y62.982 E107.70978
G0 F9000 X70.4 Y62.982
G1 F1125 X70.4 Y157.018 E115.21614
G0 F9000 X72 Y157.018
G1 F1125 X72 Y62.982 E122.7225
G0 F9000 X73.6 Y62.982
G1 F1125 X73.6 Y157.018 E130.22886
G0 F9000 X75.2 Y157.018
G1 F1125 X75.2 Y62.982 E137.73522
G0 F9000 X76.8 Y62.982
G1 F1125 X76.8 Y157.018 E145.24158
G0 F9000 X78.4 Y157.018
G1 F1125 X78.4 Y62.982 E152.74794
G0 F9000 X80 Y62.982
G1 F1125 X80 Y157.018 E160.2543
G0 F9000 X81.6 Y157.018
G1 F1125 X81.6 Y62.982 E167.76066
G0 F9000 X83.2 Y62.982
G1 F1125 X83.2 Y157.018 E175.26702
G0 F9000 X84.8 Y157.018
G1 F1125 X84.8 Y62.982 E182.77338
G0 F9000 X86.4 Y62.982
G1 F1125 X86.4 Y157.018 E190.27974
G0 F9000 X88 Y157.018
G1 F1125 X88 Y62.982 E197.7861
G0 F9000 X89.6 Y62.982
G1 F1125 X89.6 Y157.018 E205.29246
G0 F9000 X91.2 Y157.018
G1 F1125 X91.2 Y62.982 E212.79882
G0 F9000 X92.8 Y62.982
G1 F1125 X92.8 Y157.018 E220.30518
G0 F9000 X94.4 Y157.018
G1 F1125 X94.4 Y62.982 E227.81154
G0 F9000 X96 Y62.982
G1 F1125 X96 Y157.018 E235.3179
G0 F9000 X97.6 Y157.018
G1 F1125 X97.6 Y62.982 E242.82426
G0 F9000 X99.2 Y62.982
G1 F1125 X99.2 Y157.018 E250.33062
G0 F9000 X100.8 Y157.018
G1 F1125 X100.8 Y62.982 E257.83698
G0 F9000 X102.4 Y62.982
G1 F1125 X102.4 Y157.018 E265.34334
G0 F9000 X104 Y157.018
G1 F1125 X104 Y62.982 E272.8497
G0 F9000 X105.6 Y62.982
G1 F1125 X105.6 Y157.018 E280.35606
G0 F9000 X107.2 Y157.018
G1 F1125 X107.2 Y62.982 E287.86242
G0 F9000 X108.8 Y62.982
G1 F1125 X108.8 Y157.018 E295.36878
G0 F9000 X110.4 Y157.018
G1 F1125 X110.4 Y62.982 E302.87514
G0 F9000 X112 Y62.982
G1 F1125 X112 Y157.018 E310.3815
G0 F9000 X113.6 Y157.018
G1 F1125 X113.6 Y62.982 E317.88786
G0 F9000 X115.2 Y62.982
G1 F1125 X115.2 Y157.018 E325.39422
G0 F9000 X116.8 Y157.018
G1 F1125 X116.8 Y62.982 E332.90058
G0 F9000 X118.4 Y62.982
G1 F1125 X118.4 Y157.018 E340.40694
G0 F9000 X120 Y157.018
G1 F1125 X120 Y62.982 E347.9133
G0 F9000 X121.6 Y62.982
G1 F1125 X121.6 Y157.018 E355.41966
G0 F9000 X123.2 Y157.018
G1 F1125 X123.2 Y62.982 E362.92602
G0 F9000 X124.8 Y62.982
G1 F1125 X124.8 Y157.018 E370.43238
G0 F9000 X126.4 Y157.018
G1 F1125 X126.4 Y62.982 E377.93875
G0 F9000 X128 Y62.983
G1 F1125 X128 Y157.019 E385.44511
G0 F9000 X129.6 Y157.019
G1 F1125 X129.6 Y62.983 E392.95147
G0 F9000 X131.2 Y62.983
G1 F1125 X131.2 Y157.019 E400.45783
G0 F9000 X132.8 Y157.019
G1 F1125 X132.8 Y62.983 E407.96419
G0 F9000 X134.4 Y62.983
G1 F1125 X134.4 Y157.019 E415.47055
G0 F9000 X136 Y157.019
G1 F1125 X136 Y62.983 E422.97691
G0 F9000 X137.6 Y62.983
G1 F1125 X137.6 Y157.019 E430.48327
G0 F9000 X139.2 Y157.019
G1 F1125 X139.2 Y62.983 E437.98963
G0 F9000 X140.8 Y62.984
G1 F1125 X140.8 Y157.019 E445.49591
G0 F9000 X142.4 Y157.019
G1 F1125 X142.4 Y62.984 E453.00219
G0 F9000 X144 Y62.984
G1 F1125 X144 Y157.019 E460.50847
G0 F9000 X145.6 Y157.019
G1 F1125 X145.6 Y62.984 E468.01475
G0 F9000 X147.2 Y62.984
G1 F1125 X147.2 Y157.019 E475.52103
G0 F9000 X148.8 Y157.019
G1 F1125 X148.8 Y62.984 E483.02731
G0 F9000 X150.4 Y62.984
G1 F1125 X150.4 Y157.019 E490.53359
G0 F9000 X152 Y157.019
G1 F1125 X152 Y62.985 E498.03979
G0 F9000 X153.6 Y62.985
G1 F1125 X153.6 Y157.019 E505.54599
G0 F9000 X155.2 Y157.019
G1 F1125 X155.2 Y62.985 E513.05219
G0 F9000 X156.8 Y62.985
G1 F1125 X156.8 Y157.019 E520.55839
G0 F9000 X158.4 Y157.019
G1 F1125 X158.4 Y62.985 E528.06459
G0 F9000 X160 Y62.985
G1 F1125 X160 Y157.019 E535.57079
G0 F9000 X161.6 Y157.019
G1 F1125 X161.6 Y62.985 E543.07699
G0 F9000 X163.2 Y62.995
G1 F1125 X163.2 Y157.009 E550.5816
G0 F9000 X164.8 Y156.768
G1 F1125 X164.8 Y63.235 E558.0478
G0 F9000 X166.4 Y63.87
G1 F1125 X166.4 Y156.131 E565.41248
G0 F9000 X168 Y154.964
G1 F1125 X168 Y65.03 E572.5914
G0 F9000 X169.6 Y67.025
G1 F1125 X169.6 Y152.982 E579.45286
G1 F1500 E572.95286
G0 F9000 X170.316 Y153.866
G0 X169.641 Y154.803
G0 X168.5 Y155.949
G0 X167.436 Y156.755
G0 X166.097 Y157.456
G0 X164.594 Y157.912
G0 X163.025 Y158.081
G0 X58.331 Y158.046
G0 X56.84 Y157.781
G0 X55.76 Y157.401
G0 X54.414 Y156.672
G0 X53.392 Y155.865
G0 X52.228 Y154.611
G0 X52.8 Y153.596
G1 F1500 E579.45286
G1 F1125 X52.8 Y66.401 E586.41314
G1 F1500 E579.91314
G0 F9000 X51.786 Y66
G0 X51.046 Y67.401
G0 X50.628 Y68.729
G0 X50.454 Y69.845
G0 X50.291 Y90.986
G0 X51.2 Y91.64
G1 F1500 E586.41314
G1 F1125 X51.2 Y122.054 E588.84092
G0 F9000 X49.6 Y119.116
G1 F1125 X49.6 Y94.576 E590.7998
G1 F1500 E584.2998
G0 F300 X49.6 Y94.576 Z0.54
G0 F9000 X48.373 Y94.796
G0 X48.088 Y95.873
G0 X47.936 Y97.47
G0 X47.968 Y116.951
G0 X50.532 Y150.788
G0 X50.683 Y151.425
G0 X51.09 Y152.698
G0 X52.243 Y152.653
;TIME_ELAPSED:412.095643
;LAYER:-5
M140 S60
;TYPE:SUPPORT
G1 F1500 E590.7998
G1 F1125 X55.864 Y156.273 E591.3107
G1 X55.736 Y156.214 E591.32476
G1 X55.529 Y156.105 E591.3481
G1 X55.123 Y155.866 E591.39511
G1 X55.018 Y155.795 E591.40776
G1 X54.558 Y155.468 E591.46407
G1 X54.387 Y155.33 E591.486
G1 X53.994 Y154.986 E591.53811
G1 X53.846 Y154.84 E591.55886
G1 X53.314 Y154.252 E591.63798
G1 X53.069 Y153.958 E591.67616
G1 X52.777 Y153.565 E591.72502
G1 X52.639 Y153.358 E591.74984
G1 X52.387 Y152.932 E591.79923
G1 X52.284 Y152.74 E591.82097
G1 F1500 E585.32097
G0 F9000 X51.459 Y153.454
G0 X52.228 Y154.611
G0 X53.278 Y155.775
G0 X54.306 Y156.576
G0 X55.024 Y157.044
G0 X55.864 Y156.273
G1 F1500 E591.82097
G1 F1125 X56.184 Y156.424 E591.85627
G1 X56.408 Y156.515 E591.8804
G1 X56.929 Y156.696 E591.93543
G1 X57.03 Y156.728 E591.946
G1 X57.461 Y156.838 E591.99039
G1 X57.685 Y156.883 E592.01318
G1 X57.925 Y156.92 E592.03741
G1 X51.577 Y150.572 E592.93319
G1 X51.518 Y150.121 E592.97857
G1 X51.5 Y149.926 E592.99811
G1 X51.48 Y149.405 E593.05013
G1 X51.48 Y149.061 E593.08446
G1 X59.436 Y157.017 E594.20714
G1 X60.85 Y157.017 E594.34823
G1 X51.48 Y147.647 E595.67043
G1 X51.48 Y146.233 E595.81152
G1 X62.264 Y157.017 E597.33326
G1 X63.679 Y157.017 E597.47445
G1 X51.48 Y144.819 E599.19579
G1 X51.48 Y143.404 E599.33698
G1 X65.093 Y157.017 E601.25792
G1 X66.507 Y157.017 E601.39901
G1 X51.48 Y141.99 E603.51948
G1 X51.48 Y140.576 E603.66057
G1 X67.921 Y157.017 E605.98058
G1 X69.336 Y157.017 E606.12177
G1 X51.48 Y139.162 E608.64137
G1 X51.48 Y137.747 E608.78256
G1 X70.75 Y157.017 E611.50176
G1 X72.164 Y157.017 E611.64285
G1 X51.48 Y136.333 E614.56159
G1 X51.48 Y134.919 E614.70268
G1 X73.578 Y157.017 E617.82095
G1 X74.992 Y157.017 E617.96203
G1 X51.48 Y133.505 E621.27983
G1 X51.48 Y132.091 E621.42092
G1 X76.407 Y157.017 E624.93832
G1 X77.821 Y157.017 E625.07941
G1 X51.48 Y130.676 E628.79641
G1 X51.48 Y129.262 E628.9375
G1 X79.235 Y157.017 E632.85403
G1 X80.649 Y157.017 E632.99512
G1 X51.48 Y127.848 E637.11118
G1 X51.48 Y126.434 E637.25227
G1 X82.063 Y157.017 E641.56786
G1 X83.478 Y157.017 E641.70905
G1 X51.48 Y125.02 E646.22424
G1 X51.48 Y123.728 E646.35316
G1 X51.472 Y123.597 E646.36625
G1 X84.892 Y157.017 E651.08218
G1 X86.306 Y157.017 E651.22327
G1 X51.129 Y121.84 E656.18712
G1 X51.096 Y121.739 E656.19772
G1 X50.804 Y121.123 E656.26574
G1 X50.437 Y120.551 E656.33356
G1 X50.254 Y120.302 E656.36439
G1 X50.114 Y120.089 E656.38982
G1 X49.86 Y119.659 E656.43965
G1 X49.751 Y119.446 E656.46353
G1 X49.543 Y118.991 E656.51345
G1 X49.459 Y118.78 E656.53611
G1 X49.447 Y118.743 E656.53999
G1 X87.72 Y157.017 E661.94079
G1 X89.135 Y157.017 E662.08198
G1 X49.035 Y116.917 E667.74053
G1 X49.027 Y116.855 E667.74676
G1 X49.011 Y116.649 E667.76738
G1 X49 Y116.256 E667.80661
G1 X48.998 Y115.513 E667.88075
G1 X48.998 Y115.467 E667.88534
G1 X90.549 Y157.017 E673.74856
G1 X91.963 Y157.017 E673.88965
G1 X48.998 Y114.052 E679.95248
G1 X48.999 Y112.639 E680.09347
G1 X93.378 Y157.018 E686.35582
G1 X94.792 Y157.018 E686.49691
G1 X48.999 Y111.225 E692.9588
G1 X49 Y109.811 E693.09989
G1 X96.206 Y157.018 E699.76124
G1 X97.621 Y157.018 E699.90243
G1 X49 Y108.397 E706.76337
G1 X49.001 Y106.983 E706.90446
G1 X99.035 Y157.018 E713.96487
G1 X100.449 Y157.018 E714.10596
G1 X49.001 Y105.569 E721.3659
G1 X49.001 Y104.156 E721.50689
G1 X101.863 Y157.018 E728.96629
G1 X103.277 Y157.018 E729.10738
G1 X49.001 Y102.741 E736.76638
G1 X49.002 Y101.328 E736.90737
G1 X104.692 Y157.018 E744.76583
G1 X106.106 Y157.018 E744.90692
G1 X49.003 Y99.914 E752.96484
G1 X49.003 Y98.5 E753.10593
G1 X107.52 Y157.018 E761.36338
G1 X108.934 Y157.018 E761.50447
G1 X49.016 Y97.099 E769.95962
G1 X49.03 Y96.817 E769.98779
G1 X49.058 Y96.557 E770.01388
G1 X49.136 Y96.054 E770.06467
G1 X49.177 Y95.861 E770.08436
G1 X49.18 Y95.849 E770.08559
G1 X110.348 Y157.018 E778.71713
G1 X111.763 Y157.018 E778.85832
G1 X49.517 Y94.772 E787.6419
G1 X49.548 Y94.694 E787.65028
G1 X49.65 Y94.462 E787.67556
G1 X49.871 Y94.02 E787.72487
G1 X49.982 Y93.823 E787.74744
G1 X113.177 Y157.018 E796.66493
G1 X114.591 Y157.018 E796.80602
G1 X50.546 Y92.973 E805.84346
G1 X50.836 Y92.509 E805.89806
G1 X51.044 Y92.056 E805.9478
G1 X116.005 Y157.018 E815.11457
G1 X117.42 Y157.018 E815.25576
G1 X51.373 Y90.971 E824.5757
G1 X51.446 Y90.566 E824.61676
G1 X51.481 Y89.959 E824.67743
G1 X51.481 Y89.665 E824.70677
G1 X118.834 Y157.018 E834.211
G1 X120.248 Y157.018 E834.35209
G1 X51.481 Y88.251 E844.05586
